res/luts/cooling.CUBE
#Created by: Adobe Photoshop Export Color Lookup Plugin
TITLE "Cooling color grading"
#LUT size
LUT_3D_SIZE 5
#data domain
#LUT data points
DOMAIN_MIN 0.000000 0.000000 0.000000
DOMAIN_MAX 0.903226 0.903226 0.903226
0.166473 0.271576 0.421021
0.166473 0.271576 0.421021
0.166473 0.271576 0.421021
0.166473 0.271576 0.421021
0.166473 0.271576 0.421021
0.236633 0.418976 0.633423
0.229401 0.420410 0.634857
0.229401 0.420410 0.634857
0.220886 0.422394 0.636688
0.212036 0.424530 0.638763
0.097931 0.238159 0.370026
0.095551 0.230255 0.358368
0.093811 0.225677 0.352020
0.093109 0.222351 0.346863
0.090729 0.214447 0.335266
0.127838 0.340057 0.519196
0.129669 0.350159 0.534760
0.132660 0.361511 0.551544
0.134430 0.371643 0.567017
0.135681 0.378357 0.577423
0.096130 0.177979 0.284241
0.094238 0.182373 0.290771
0.096436 0.186768 0.296906
0.096436 0.186768 0.296906
0.093689 0.191559 0.303528
0.172668 0.270599 0.420166
0.169983 0.275360 0.426849
0.169983 0.275360 0.426849
0.169983 0.275360 0.426849
0.169983 0.275360 0.426849
0.235321 0.428467 0.646637
0.235321 0.428467 0.646637
0.227173 0.430298 0.648315
0.218567 0.432343 0.650299
0.218567 0.432343 0.650299
0.099731 0.242676 0.376465
0.097931 0.238159 0.370026
0.095551 0.230255 0.358368
0.093811 0.225677 0.352020
0.091339 0.217773 0.340393
0.124878 0.328705 0.502533
0.126648 0.338867 0.518036
0.129669 0.350159 0.534760
0.130829 0.356964 0.545044
0.133209 0.364868 0.556641
0.096130 0.177979 0.284241
0.096130 0.177979 0.284241
0.094238 0.182373 0.290771
0.096436 0.186768 0.296906
0.096436 0.186768 0.296906
0.176086 0.274384 0.426025
0.176086 0.274384 0.426025
0.176086 0.274384 0.426025
0.172882 0.279388 0.432739
0.172882 0.279388 0.432739
0.238373 0.432465 0.652435
0.238373 0.432465 0.652435
0.230164 0.434296 0.654175
0.221741 0.436249 0.656067
0.221741 0.436249 0.656067
0.101990 0.250702 0.387787
0.077271 0.270996 0.435608
0.073547 0.250793 0.404358
0.069977 0.230469 0.373260
0.069977 0.230469 0.373260
0.121796 0.317413 0.485718
0.123657 0.327545 0.501221
0.126648 0.338867 0.518036
0.127838 0.345673 0.528320
0.130219 0.353607 0.539886
0.098450 0.173279 0.277985
0.096130 0.177979 0.284241
0.094238 0.182373 0.290771
0.098785 0.182068 0.290619
0.096436 0.186768 0.296906
0.172882 0.279388 0.432739
0.172882 0.279388 0.432739
0.172882 0.279388 0.432739
0.172882 0.279388 0.432739
0.172882 0.279388 0.432739
0.244659 0.440369 0.664215
0.235809 0.442505 0.666046
0.227661 0.444336 0.667847
0.217743 0.446930 0.670319
0.217743 0.446930 0.670319
0.084473 0.311554 0.497803
0.079712 0.284515 0.456360
0.074890 0.257446 0.414825
0.074280 0.254089 0.409729
0.069977 0.230469 0.373260
0.119415 0.309509 0.474121
0.121796 0.317413 0.485718
0.123657 0.327545 0.501221
0.124847 0.334320 0.511536
0.127289 0.342194 0.523163
0.093811 0.173645 0.278290
0.096130 0.177979 0.284241
0.096130 0.177979 0.284241
0.094238 0.182373 0.290771
0.098785 0.182068 0.290619
0.175812 0.283478 0.438721
0.175812 0.283478 0.438721
0.175812 0.283478 0.438721
0.175812 0.283478 0.438721
0.175812 0.283478 0.438721
0.242767 0.450104 0.677612
0.234070 0.452240 0.679474
0.224487 0.454651 0.681824
0.213531 0.457672 0.684753
0.213531 0.457672 0.684753
0.088257 0.331726 0.529083
0.082153 0.298004 0.477112
0.080353 0.287872 0.461578
0.074280 0.254089 0.409729
0.069458 0.227081 0.368164
0.117035 0.301575 0.462524
0.119415 0.309509 0.474121
0.120636 0.316315 0.484467
0.123047 0.324158 0.496094
0.124237 0.330933 0.506409
0.093811 0.173645 0.278290
0.093811 0.173645 0.278290
0.096130 0.177979 0.284241
0.096130 0.177979 0.284241
0.094238 0.182373 0.290771
