res/luts/cooling.CUBE
#Created by: Adobe Photoshop Export Color Lookup Plugin
TITLE "Cooling color grading"
#LUT size
LUT_3D_SIZE 32
#data domain
DOMAIN_MIN 0.0 0.0 0.0
DOMAIN_MAX 1.0 1.0 1.0
#LUT data points
0.166473 0.271576 0.421021
0.166473 0.271576 0.421021
0.166473 0.271576 0.421021
0.166473 0.271576 0.421021
0.166473 0.271576 0.421021
0.166473 0.271576 0.421021
0.166473 0.271576 0.421021
0.166473 0.271576 0.421021
0.166473 0.271576 0.421021
0.166473 0.271576 0.421021
0.166473 0.271576 0.421021
0.166473 0.271576 0.421021
0.166473 0.271576 0.421021
0.166473 0.271576 0.421021
0.166473 0.271576 0.421021
0.166473 0.271576 0.421021
0.166473 0.271576 0.421021
0.166473 0.271576 0.421021
0.166473 0.271576 0.421021
0.166473 0.271576 0.421021
0.166473 0.271576 0.421021
0.166473 0.271576 0.421021
0.166473 0.271576 0.421021
0.166473 0.271576 0.421021
0.166473 0.271576 0.421021
0.166473 0.271576 0.421021
0.166473 0.271576 0.421021
0.166473 0.271576 0.421021
0.166473 0.271576 0.421021
0.166473 0.271576 0.421021
0.166473 0.271576 0.421021
0.166473 0.271576 0.421021
0.175812 0.283478 0.438721
0.175812 0.283478 0.438721
0.175812 0.283478 0.438721
0.175812 0.283478 0.438721
0.175812 0.283478 0.438721
0.175812 0.283478 0.438721
0.175812 0.283478 0.438721
0.175812 0.283478 0.438721
0.175812 0.283478 0.438721
0.175812 0.283478 0.438721
0.175812 0.283478 0.438721
0.175812 0.283478 0.438721
0.175812 0.283478 0.438721
0.175812 0.283478 0.438721
0.175812 0.283478 0.438721
0.175812 0.283478 0.438721
0.175812 0.283478 0.438721
0.175812 0.283478 0.438721
0.175812 0.283478 0.438721
0.175812 0.283478 0.438721
0.175812 0.283478 0.438721
0.175812 0.283478 0.438721
0.175812 0.283478 0.438721
0.175812 0.283478 0.438721
0.175812 0.283478 0.438721
0.175812 0.283478 0.438721
0.172577 0.288513 0.445496
0.172577 0.288513 0.445496
0.172577 0.288513 0.445496
0.172577 0.288513 0.445496
0.172577 0.288513 0.445496
0.172577 0.288513 0.445496
0.187439 0.299713 0.462372
0.187439 0.299713 0.462372
0.187439 0.299713 0.462372
0.187439 0.299713 0.462372
0.187439 0.299713 0.462372
0.187439 0.299713 0.462372
0.187439 0.299713 0.462372
0.187439 0.299713 0.462372
0.181274 0.300659 0.463318
0.181274 0.300659 0.463318
0.181274 0.300659 0.463318
0.181274 0.300659 0.463318
0.181274 0.300659 0.463318
0.181274 0.300659 0.463318
0.181274 0.300659 0.463318
0.181274 0.300659 0.463318
0.181274 0.300659 0.463318
0.181274 0.300659 0.463318
0.181274 0.300659 0.463318
0.181274 0.300659 0.463318
0.181274 0.300659 0.463318
0.181274 0.300659 0.463318
0.181274 0.300659 0.463318
0.181274 0.300659 0.463318
0.181274 0.300659 0.463318
0.181274 0.300659 0.463318
0.181274 0.300659 0.463318
0.181274 0.300659 0.463318
0.181274 0.300659 0.463318
0.181274 0.300659 0.463318
0.181274 0.300659 0.463318
0.181274 0.300659 0.463318
0.192902 0.316925 0.487000
0.192902 0.316925 0.487000
0.192902 0.316925 0.487000
0.192902 0.316925 0.487000
0.192902 0.316925 0.487000
0.192902 0.316925 0.487000
0.192902 0.316925 0.487000
0.192902 0.316925 0.487000
0.192902 0.316925 0.487000
0.192902 0.316925 0.487000
0.192902 0.316925 0.487000
0.192902 0.316925 0.487000
0.192902 0.316925 0.487000
0.192902 0.316925 0.487000
0.192902 0.316925 0.487000
0.192902 0.316925 0.487000
0.192902 0.316925 0.487000
0.192902 0.316925 0.487000
0.192902 0.316925 0.487000
0.192902 0.316925 0.487000
0.192902 0.316925 0.487000
0.192902 0.316925 0.487000
0.192902 0.316925 0.487000
0.192902 0.316925 0.487000
0.192902 0.316925 0.487000
0.192902 0.316925 0.487000
0.192902 0.316925 0.487000
0.192902 0.316925 0.487000
0.192902 0.316925 0.487000
0.192902 0.316925 0.487000
0.189789 0.321930 0.493774
0.189789 0.321930 0.493774
0.207794 0.337097 0.516510
0.207794 0.337097 0.516510
0.207794 0.337097 0.516510
0.207794 0.337097 0.516510
0.207794 0.337097 0.516510
0.201508 0.338135 0.517426
0.201508 0.338135 0.517426
0.201508 0.338135 0.517426
0.201508 0.338135 0.517426
0.201508 0.338135 0.517426
0.201508 0.338135 0.517426
0.201508 0.338135 0.517426
0.201508 0.338135 0.517426
0.201508 0.338135 0.517426
0.201508 0.338135 0.517426
0.201508 0.338135 0.517426
0.201508 0.338135 0.517426
0.201508 0.338135 0.517426
0.201508 0.338135 0.517426
0.201508 0.338135 0.517426
0.201508 0.338135 0.517426
0.201508 0.338135 0.517426
0.201508 0.338135 0.517426
0.201508 0.338135 0.517426
0.201508 0.338135 0.517426
0.201508 0.338135 0.517426
0.201508 0.338135 0.517426
0.201508 0.338135 0.517426
0.201508 0.338135 0.517426
0.201508 0.338135 0.517426
0.201508 0.338135 0.517426
0.201508 0.338135 0.517426
0.216339 0.358337 0.547058
0.216339 0.358337 0.547058
0.216339 0.358337 0.547058
0.216339 0.358337 0.547058
0.216339 0.358337 0.547058
0.216339 0.358337 0.547058
0.216339 0.358337 0.547058
0.216339 0.358337 0.547058
0.216339 0.358337 0.547058
0.216339 0.358337 0.547058
0.216339 0.358337 0.547058
0.216339 0.358337 0.547058
0.212494 0.363586 0.553925
0.212494 0.363586 0.553925
0.212494 0.363586 0.553925
0.212494 0.363586 0.553925
0.212494 0.363586 0.553925
0.212494 0.363586 0.553925
0.212494 0.363586 0.553925
0.205627 0.364899 0.555206
0.205627 0.364899 0.555206
0.205627 0.364899 0.555206
0.205627 0.364899 0.555206
0.205627 0.364899 0.555206
0.205627 0.364899 0.555206
0.205627 0.364899 0.555206
0.205627 0.364899 0.555206
0.205627 0.364899 0.555206
0.205627 0.364899 0.555206
0.205627 0.364899 0.555206
0.205627 0.364899 0.555206
0.205627 0.364899 0.555206
0.229614 0.388123 0.589630
0.229614 0.388123 0.589630
0.222748 0.389435 0.590851
0.222748 0.389435 0.590851
0.222748 0.389435 0.590851
0.222748 0.389435 0.590851
0.222748 0.389435 0.590851
0.222748 0.389435 0.590851
0.222748 0.389435 0.590851
0.222748 0.389435 0.590851
0.222748 0.389435 0.590851
0.222748 0.389435 0.590851
0.222748 0.389435 0.590851
0.222748 0.389435 0.590851
0.222748 0.389435 0.590851
0.222748 0.389435 0.590851
0.215851 0.390656 0.592072
0.215851 0.390656 0.592072
0.215851 0.390656 0.592072
0.215851 0.390656 0.592072
0.215851 0.390656 0.592072
0.215851 0.390656 0.592072
0.215851 0.390656 0.592072
0.215851 0.390656 0.592072
0.215851 0.390656 0.592072
0.215851 0.390656 0.592072
0.215851 0.390656 0.592072
0.215851 0.390656 0.592072
0.215851 0.390656 0.592072
0.215851 0.390656 0.592072
0.215851 0.390656 0.592072
0.215851 0.390656 0.592072
0.236633 0.418976 0.633423
0.236633 0.418976 0.633423
0.236633 0.418976 0.633423
0.236633 0.418976 0.633423
0.236633 0.418976 0.633423
0.236633 0.418976 0.633423
0.236633 0.418976 0.633423
0.229401 0.420410 0.634857
0.229401 0.420410 0.634857
0.229401 0.420410 0.634857
0.229401 0.420410 0.634857
0.229401 0.420410 0.634857
0.229401 0.420410 0.634857
0.229401 0.420410 0.634857
0.229401 0.420410 0.634857
0.229401 0.420410 0.634857
0.229401 0.420410 0.634857
0.220886 0.422394 0.636688
0.220886 0.422394 0.636688
0.220886 0.422394 0.636688
0.220886 0.422394 0.636688
0.220886 0.422394 0.636688
0.220886 0.422394 0.636688
0.220886 0.422394 0.636688
0.220886 0.422394 0.636688
0.220886 0.422394 0.636688
0.220886 0.422394 0.636688
0.220886 0.422394 0.636688
0.212036 0.424530 0.638763
0.212036 0.424530 0.638763
0.212036 0.424530 0.638763
0.212036 0.424530 0.638763
0.245789 0.454163 0.683502
0.236938 0.456329 0.685516
0.236938 0.456329 0.685516
0.236938 0.456329 0.685516
0.236938 0.456329 0.685516
0.236938 0.456329 0.685516
0.236938 0.456329 0.685516
0.236938 0.456329 0.685516
0.227600 0.458649 0.687714
0.227600 0.458649 0.687714
0.227600 0.458649 0.687714
0.227600 0.458649 0.687714
0.227600 0.458649 0.687714
0.227600 0.458649 0.687714
0.227600 0.458649 0.687714
0.227600 0.458649 0.687714
0.216888 0.461517 0.690491
0.216888 0.461517 0.690491
0.216888 0.461517 0.690491
0.216888 0.461517 0.690491
0.216888 0.461517 0.690491
0.216888 0.461517 0.690491
0.216888 0.461517 0.690491
0.216888 0.461517 0.690491
0.205322 0.464874 0.693756
0.205322 0.464874 0.693756
0.205322 0.464874 0.693756
0.205322 0.464874 0.693756
0.205322 0.464874 0.693756
0.205322 0.464874 0.693756
0.205322 0.464874 0.693756
0.205322 0.464874 0.693756
0.231720 0.496033 0.739807
0.231720 0.496033 0.739807
0.231720 0.496033 0.739807
0.231720 0.496033 0.739807
0.231720 0.496033 0.739807
0.231720 0.496033 0.739807
0.219727 0.499481 0.743195
0.219727 0.499481 0.743195
0.219727 0.499481 0.743195
0.219727 0.499481 0.743195
0.219727 0.499481 0.743195
0.219727 0.499481 0.743195
0.207764 0.502930 0.746643
0.207764 0.502930 0.746643
0.207764 0.502930 0.746643
0.207764 0.502930 0.746643
0.207764 0.502930 0.746643
0.207764 0.502930 0.746643
0.207764 0.502930 0.746643
0.199707 0.504730 0.748291
0.199707 0.504730 0.748291
0.199707 0.504730 0.748291
0.199707 0.504730 0.748291
0.199707 0.504730 0.748291
0.199707 0.504730 0.748291
0.199707 0.504730 0.748291
0.198486 0.503601 0.747009
0.198486 0.503601 0.747009
0.198486 0.503601 0.747009
0.198486 0.503601 0.747009
0.198486 0.503601 0.747009
0.198486 0.503601 0.747009
0.213409 0.543274 0.803375
0.213409 0.543274 0.803375
0.213409 0.543274 0.803375
0.212250 0.542145 0.802185
0.212250 0.542145 0.802185
0.212250 0.542145 0.802185
0.212250 0.542145 0.802185
0.212250 0.542145 0.802185
0.211029 0.540955 0.800903
0.211029 0.540955 0.800903
0.211029 0.540955 0.800903
0.211029 0.540955 0.800903
0.211029 0.540955 0.800903
0.211029 0.540955 0.800903
0.209839 0.539825 0.799683
0.210419 0.543213 0.804840
0.210419 0.543213 0.804840
0.210419 0.543213 0.804840
0.210419 0.543213 0.804840
0.210419 0.543213 0.804840
0.209259 0.542053 0.803650
0.209259 0.542053 0.803650
0.209259 0.542053 0.803650
0.209259 0.542053 0.803650
0.209259 0.542053 0.803650
0.209259 0.542053 0.803650
0.208069 0.540894 0.802399
0.208069 0.540894 0.802399
0.208069 0.540894 0.802399
0.208069 0.540894 0.802399
0.208069 0.540894 0.802399
0.208069 0.540894 0.802399
0.220032 0.574921 0.851166
0.220032 0.574921 0.851166
0.220032 0.574921 0.851166
0.220032 0.574921 0.851166
0.220032 0.574921 0.851166
0.219391 0.577148 0.855011
0.219391 0.577148 0.855011
0.219391 0.577148 0.855011
0.219391 0.577148 0.855011
0.219391 0.577148 0.855011
0.220032 0.580505 0.860291
0.218872 0.579376 0.859039
0.218872 0.579376 0.859039
0.218872 0.579376 0.859039
0.218872 0.579376 0.859039
0.218872 0.579376 0.859039
0.219391 0.582733 0.864136
0.218201 0.581573 0.862915
0.218201 0.581573 0.862915
0.218201 0.581573 0.862915
0.218201 0.581573 0.862915
0.218201 0.581573 0.862915
0.217041 0.580444 0.861664
0.217651 0.583801 0.866913
0.217651 0.583801 0.866913
0.217651 0.583801 0.866913
0.217651 0.583801 0.866913
0.217651 0.583801 0.866913
0.217651 0.583801 0.866913
0.216492 0.582672 0.865692
0.216492 0.582672 0.865692
0.216492 0.582672 0.865692
0.225403 0.610962 0.906708
0.225403 0.610962 0.906708
0.226013 0.614319 0.911926
0.226013 0.614319 0.911926
0.226593 0.617737 0.917084
0.226593 0.617737 0.917084
0.226013 0.619965 0.921051
0.226013 0.619965 0.921051
0.226013 0.619965 0.921051
0.226654 0.623352 0.926239
0.226654 0.623352 0.926239
0.226654 0.623352 0.926239
0.226044 0.625549 0.930176
0.226044 0.625549 0.930176
0.226044 0.625549 0.930176
0.226654 0.628937 0.935333
0.226654 0.628937 0.935333
0.226654 0.628937 0.935333
0.227264 0.632324 0.940552
0.226105 0.631195 0.939331
0.226105 0.631195 0.939331
0.226654 0.634521 0.944458
0.226654 0.634521 0.944458
0.226654 0.634521 0.944458
0.226654 0.634521 0.944458
0.226105 0.636780 0.948456
0.226105 0.636780 0.948456
0.226105 0.636780 0.948456
0.226105 0.636780 0.948456
0.226105 0.636780 0.948456
0.226105 0.636780 0.948456
0.226624 0.640137 0.953522
0.232086 0.664978 0.991089
0.232666 0.668365 0.996216
0.234497 0.671417 1.000000
0.239288 0.673645 1.000000
0.244049 0.675873 1.000000
0.241913 0.674957 1.000000
0.246674 0.677185 1.000000
0.251495 0.679413 1.000000
0.256256 0.681610 1.000000
0.261108 0.683807 1.000000
0.261108 0.683807 1.000000
0.265961 0.685974 1.000000
0.270721 0.688232 1.000000
0.273407 0.689514 1.000000
0.273407 0.689514 1.000000
0.278198 0.691742 1.000000
0.282990 0.693939 1.000000
0.282990 0.693939 1.000000
0.287842 0.696136 1.000000
0.287842 0.696136 1.000000
0.292664 0.698334 1.000000
0.290497 0.697388 1.000000
0.295410 0.699646 1.000000
0.295410 0.699646 1.000000
0.295410 0.699646 1.000000
0.300140 0.701782 1.000000
0.300140 0.701782 1.000000
0.300140 0.701782 1.000000
0.305115 0.704010 1.000000
0.302917 0.703094 1.000000
0.302917 0.703094 1.000000
0.302917 0.703094 1.000000
0.097931 0.238159 0.370026
0.097931 0.238159 0.370026
0.097198 0.234863 0.364685
0.097198 0.234863 0.364685
0.097198 0.234863 0.364685
0.097198 0.234863 0.364685
0.097198 0.234863 0.364685
0.095551 0.230255 0.358368
0.095551 0.230255 0.358368
0.095551 0.230255 0.358368
0.095551 0.230255 0.358368
0.095551 0.230255 0.358368
0.094849 0.226868 0.353210
0.094849 0.226868 0.353210
0.093811 0.225677 0.352020
0.093811 0.225677 0.352020
0.093811 0.225677 0.352020
0.093109 0.222351 0.346863
0.093109 0.222351 0.346863
0.093109 0.222351 0.346863
0.093109 0.222351 0.346863
0.093109 0.222351 0.346863
0.091339 0.217773 0.340393
0.091339 0.217773 0.340393
0.091339 0.217773 0.340393
0.091339 0.217773 0.340393
0.091339 0.217773 0.340393
0.090729 0.214447 0.335266
0.090729 0.214447 0.335266
0.161987 0.454285 0.686523
0.161987 0.454285 0.686523
0.161987 0.454285 0.686523
0.090698 0.345245 0.549866
0.089447 0.338470 0.539520
0.088837 0.335114 0.534302
0.087585 0.328369 0.523865
0.086334 0.321686 0.513428
0.085205 0.314880 0.503113
0.083954 0.308136 0.492737
0.082794 0.301392 0.482361
0.081543 0.294617 0.471985
0.080963 0.291229 0.466766
0.084473 0.311554 0.497803
0.083374 0.304749 0.487488
0.082153 0.298004 0.477112
0.080963 0.291229 0.466766
0.080353 0.287872 0.461578
0.079041 0.281189 0.451080
0.077881 0.274384 0.440826
0.077271 0.270996 0.435608
0.075989 0.264282 0.425171
0.075439 0.260864 0.419983
0.074280 0.254089 0.409729
0.073547 0.250793 0.404358
0.072388 0.243988 0.394012
0.071777 0.240692 0.388794
0.071198 0.237213 0.383667
0.070557 0.233917 0.378326
0.069458 0.227081 0.368164
0.068756 0.223785 0.362915
0.068207 0.220367 0.357758
0.067566 0.216980 0.352478
0.066925 0.213623 0.347321
0.066406 0.210205 0.342255
0.021698 0.038727 0.094574
0.038757 0.075104 0.148590
0.034210 0.062866 0.130096
0.037415 0.063171 0.126892
0.042023 0.077026 0.150848
0.050507 0.093018 0.166016
0.063751 0.119141 0.203613
0.065796 0.123596 0.209625
0.589142 0.871948 1.000000
0.589142 0.871948 1.000000
0.589142 0.871948 1.000000
0.589142 0.871948 1.000000
0.589142 0.871948 1.000000
0.050903 0.114655 0.206543
0.051422 0.112488 0.198181
0.048645 0.101074 0.181702
0.050079 0.102051 0.183136
0.048615 0.100983 0.185974
0.051056 0.108856 0.197662
0.044464 0.092285 0.176636
0.045990 0.093201 0.178528
0.041016 0.083038 0.164307
0.036987 0.070435 0.150696
0.031708 0.060547 0.132019
0.031860 0.058777 0.123077
0.589142 0.871948 1.000000
0.589142 0.871948 1.000000
0.586731 0.871185 1.000000
0.586731 0.871185 1.000000
0.586731 0.871185 1.000000
0.586731 0.871185 1.000000
0.586731 0.871185 1.000000
0.569672 0.865906 1.000000
0.569672 0.865906 1.000000
0.569672 0.865906 1.000000
0.533081 0.854614 1.000000
0.530670 0.853851 1.000000
0.530670 0.853851 1.000000
0.530670 0.853851 1.000000
0.514465 0.843445 1.000000
0.494873 0.830139 1.000000
0.572052 0.866669 1.000000
0.572052 0.866669 1.000000
0.572052 0.866669 1.000000
0.572052 0.866669 1.000000
0.572052 0.866669 1.000000
0.572052 0.866669 1.000000
0.572052 0.866669 1.000000
0.572052 0.866669 1.000000
0.572052 0.866669 1.000000
0.572052 0.866669 1.000000
0.572052 0.866669 1.000000
0.572052 0.866669 1.000000
0.572052 0.866669 1.000000
0.572052 0.866669 1.000000
0.572052 0.866669 1.000000
0.572052 0.866669 1.000000
0.572052 0.866669 1.000000
0.572052 0.866669 1.000000
0.572052 0.866669 1.000000
0.572052 0.866669 1.000000
0.572052 0.866669 1.000000
0.572052 0.866669 1.000000
0.572052 0.866669 1.000000
0.113831 0.381989 0.596222
0.113831 0.381989 0.596222
0.113190 0.378662 0.590942
0.112549 0.375305 0.585724
0.119751 0.404663 0.629669
0.119171 0.401245 0.624512
0.118591 0.397858 0.619324
0.117981 0.394470 0.614136
0.117340 0.391113 0.608948
0.116699 0.387756 0.603699
0.116119 0.384369 0.598511
0.115540 0.380981 0.593384
0.113708 0.376495 0.586945
0.113098 0.373108 0.581757
0.112549 0.369659 0.576630
0.111938 0.366302 0.571442
0.111237 0.362976 0.566132
0.110718 0.359558 0.561005
0.110107 0.356171 0.555847
0.109528 0.352783 0.550659
0.107758 0.348267 0.544312
0.107056 0.344879 0.539032
0.106567 0.341492 0.533936
0.105896 0.338104 0.528656
0.105347 0.334717 0.523529
0.104706 0.331329 0.518311
0.104095 0.328003 0.513153
0.103485 0.324646 0.507874
0.101654 0.320099 0.501526
0.101135 0.316650 0.496399
0.101135 0.316650 0.496399
0.100433 0.313354 0.491119
0.046661 0.087738 0.154449
0.046661 0.087738 0.154449
0.046661 0.087738 0.154449
0.046661 0.087738 0.154449
0.046661 0.087738 0.154449
0.046661 0.087738 0.154449
0.046661 0.087738 0.154449
0.046661 0.087738 0.154449
0.046661 0.087738 0.154449
0.046661 0.087738 0.154449
0.046661 0.087738 0.154449
0.074585 0.207214 0.332275
0.074585 0.207214 0.332275
0.074585 0.207214 0.332275
0.074585 0.207214 0.332275
0.074585 0.207214 0.332275
0.074585 0.207214 0.332275
0.075104 0.205048 0.328217
0.075104 0.205048 0.328217
0.104706 0.320160 0.500000
0.104095 0.316772 0.494934
0.102234 0.312256 0.488312
0.102234 0.312256 0.488312
0.101624 0.308899 0.483185
0.101624 0.308899 0.483185
0.100983 0.305573 0.477936
0.100433 0.302155 0.472839
0.100433 0.302155 0.472839
0.099762 0.298798 0.467529
0.099762 0.298798 0.467529
0.097992 0.294220 0.461273
0.097992 0.294220 0.461273
0.142822 0.402130 0.612091
0.142822 0.402130 0.612091
0.143463 0.405518 0.617310
0.144104 0.408875 0.622559
0.144104 0.408875 0.622559
0.144653 0.412262 0.627655
0.144653 0.412262 0.627655
0.145264 0.415680 0.632843
0.147034 0.420227 0.639282
0.147034 0.420227 0.639282
0.147705 0.423584 0.644470
0.148315 0.426971 0.649689
0.148315 0.426971 0.649689
0.148895 0.430298 0.654816
0.148895 0.430298 0.654816
0.149506 0.433746 0.660004
0.061401 0.155182 0.254913
0.062592 0.156372 0.256104
0.062592 0.156372 0.256104
0.062592 0.156372 0.256104
0.062592 0.156372 0.256104
0.062592 0.156372 0.256104
0.062592 0.156372 0.256104
0.062592 0.156372 0.256104
0.062592 0.156372 0.256104
0.062592 0.156372 0.256104
0.062592 0.156372 0.256104
0.062592 0.156372 0.256104
0.062592 0.156372 0.256104
0.062592 0.156372 0.256104
0.062592 0.156372 0.256104
0.065765 0.167633 0.273010
0.127838 0.340057 0.519196
0.127838 0.340057 0.519196
0.128479 0.343384 0.524384
0.128479 0.343384 0.524384
0.129028 0.346802 0.529602
0.129028 0.346802 0.529602
0.129669 0.350159 0.534760
0.129669 0.350159 0.534760
0.129669 0.350159 0.534760
0.130219 0.353607 0.539886
0.130219 0.353607 0.539886
0.130829 0.356964 0.545044
0.130829 0.356964 0.545044
0.131378 0.360352 0.550232
0.132660 0.361511 0.551544
0.132660 0.361511 0.551544
0.133209 0.364868 0.556641
0.133209 0.364868 0.556641
0.133850 0.368225 0.561829
0.133850 0.368225 0.561829
0.133850 0.368225 0.561829
0.134430 0.371643 0.567017
0.134430 0.371643 0.567017
0.134430 0.371643 0.567017
0.135010 0.375000 0.572205
0.135010 0.375000 0.572205
0.135010 0.375000 0.572205
0.135681 0.378357 0.577423
0.135681 0.378357 0.577423
0.136780 0.379547 0.578552
0.137482 0.382904 0.583862
0.137482 0.382904 0.583862
0.115875 0.294800 0.452240
0.116547 0.298126 0.457489
0.116547 0.298126 0.457489
0.116547 0.298126 0.457489
0.117035 0.301575 0.462524
0.117035 0.301575 0.462524
0.117035 0.301575 0.462524
0.117615 0.304962 0.467682
0.117615 0.304962 0.467682
0.117615 0.304962 0.467682
0.119415 0.309509 0.474121
0.119415 0.309509 0.474121
0.119415 0.309509 0.474121
0.120087 0.312897 0.479279
0.120087 0.312897 0.479279
0.120087 0.312897 0.479279
0.120087 0.312897 0.479279
0.120636 0.316315 0.484467
0.120636 0.316315 0.484467
0.120636 0.316315 0.484467
0.121277 0.319672 0.489655
0.121277 0.319672 0.489655
0.121277 0.319672 0.489655
0.121277 0.319672 0.489655
0.121918 0.323029 0.494873
0.121918 0.323029 0.494873
0.123047 0.324158 0.496094
0.123657 0.327545 0.501221
0.123657 0.327545 0.501221
0.123657 0.327545 0.501221
0.123657 0.327545 0.501221
0.124237 0.330933 0.506409
0.107391 0.264313 0.407104
0.107391 0.264313 0.407104
0.108124 0.267578 0.412415
0.108124 0.267578 0.412415
0.108124 0.267578 0.412415
0.108124 0.267578 0.412415
0.108765 0.270966 0.417572
0.108765 0.270966 0.417572
0.108765 0.270966 0.417572
0.108765 0.270966 0.417572
0.109344 0.274353 0.422760
0.109344 0.274353 0.422760
0.109344 0.274353 0.422760
0.109344 0.274353 0.422760
0.111084 0.278992 0.429047
0.111084 0.278992 0.429047
0.111084 0.278992 0.429047
0.111084 0.278992 0.429047
0.111084 0.278992 0.429047
0.111603 0.282349 0.434143
0.111603 0.282349 0.434143
0.111603 0.282349 0.434143
0.111603 0.282349 0.434143
0.112305 0.285736 0.439423
0.112305 0.285736 0.439423
0.112305 0.285736 0.439423
0.112305 0.285736 0.439423
0.112823 0.289093 0.444550
0.112823 0.289093 0.444550
0.112823 0.289093 0.444550
0.114136 0.290222 0.445923
0.114136 0.290222 0.445923
0.100250 0.240540 0.372437
0.100250 0.240540 0.372437
0.100250 0.240540 0.372437
0.100830 0.243927 0.377533
0.100830 0.243927 0.377533
0.100830 0.243927 0.377533
0.100830 0.243927 0.377533
0.100830 0.243927 0.377533
0.101501 0.247253 0.382782
0.101501 0.247253 0.382782
0.101501 0.247253 0.382782
0.102600 0.248505 0.383911
0.102600 0.248505 0.383911
0.103333 0.251801 0.389130
0.103333 0.251801 0.389130
0.103333 0.251801 0.389130
0.103333 0.251801 0.389130
0.103333 0.251801 0.389130
0.103333 0.251801 0.389130
0.103912 0.255188 0.394348
0.103912 0.255188 0.394348
0.103912 0.255188 0.394348
0.103912 0.255188 0.394348
0.103912 0.255188 0.394348
0.104523 0.258545 0.399536
0.104523 0.258545 0.399536
0.104523 0.258545 0.399536
0.104523 0.258545 0.399536
0.105591 0.259766 0.400726
0.105591 0.259766 0.400726
0.106262 0.263153 0.405945
0.106262 0.263153 0.405945
0.102844 0.217865 0.340759
0.099976 0.222717 0.347534
0.099976 0.222717 0.347534
0.099976 0.222717 0.347534
0.099976 0.222717 0.347534
0.099976 0.222717 0.347534
0.099976 0.222717 0.347534
0.099976 0.222717 0.347534
0.096466 0.227875 0.354309
0.096466 0.227875 0.354309
0.096466 0.227875 0.354309
0.096466 0.227875 0.354309
0.096466 0.227875 0.354309
0.096466 0.227875 0.354309
0.096771 0.231384 0.359741
0.096771 0.231384 0.359741
0.096771 0.231384 0.359741
0.098694 0.232239 0.360504
0.098694 0.232239 0.360504
0.098694 0.232239 0.360504
0.098694 0.232239 0.360504
0.098450 0.235992 0.365997
0.098450 0.235992 0.365997
0.098450 0.235992 0.365997
0.098450 0.235992 0.365997
0.098450 0.235992 0.365997
0.098450 0.235992 0.365997
0.098450 0.235992 0.365997
0.099030 0.239441 0.371155
0.099030 0.239441 0.371155
0.099030 0.239441 0.371155
0.099030 0.239441 0.371155
0.101135 0.204285 0.321808
0.101135 0.204285 0.321808
0.101135 0.204285 0.321808
0.101135 0.204285 0.321808
0.101135 0.204285 0.321808
0.101135 0.204285 0.321808
0.101135 0.204285 0.321808
0.098480 0.209106 0.328400
0.098480 0.209106 0.328400
0.098480 0.209106 0.328400
0.098480 0.209106 0.328400
0.098480 0.209106 0.328400
0.098480 0.209106 0.328400
0.098480 0.209106 0.328400
0.098480 0.209106 0.328400
0.095703 0.213898 0.335114
0.095703 0.213898 0.335114
0.095703 0.213898 0.335114
0.095703 0.213898 0.335114
0.099915 0.213867 0.334686
0.099915 0.213867 0.334686
0.099915 0.213867 0.334686
0.099915 0.213867 0.334686
0.097015 0.218689 0.341461
0.097015 0.218689 0.341461
0.097015 0.218689 0.341461
0.097015 0.218689 0.341461
0.097015 0.218689 0.341461
0.097015 0.218689 0.341461
0.097015 0.218689 0.341461
0.097015 0.218689 0.341461
0.094360 0.223480 0.348175
0.098511 0.191162 0.303070
0.098511 0.191162 0.303070
0.098511 0.191162 0.303070
0.098511 0.191162 0.303070
0.098511 0.191162 0.303070
0.098511 0.191162 0.303070
0.098511 0.191162 0.303070
0.095886 0.195953 0.309662
0.095886 0.195953 0.309662
0.095886 0.195953 0.309662
0.095886 0.195953 0.309662
0.095886 0.195953 0.309662
0.095886 0.195953 0.309662
0.095886 0.195953 0.309662
0.095886 0.195953 0.309662
0.095886 0.195953 0.309662
0.100739 0.195587 0.309265
