res/luts/cooling.CUBE
#Created by: Adobe Photoshop Export Color Lookup Plugin
TITLE "Cooling color grading"
#LUT size
LUT_3D_SIZE 8
#data domain
#LUT data points
DOMAIN_MIN 0.000000 0.000000 0.000000
DOMAIN_MAX 0.903226 0.903226 0.903226
0.166473 0.271576 0.421021
0.166473 0.271576 0.421021
0.166473 0.271576 0.421021
0.166473 0.271576 0.421021
0.166473 0.271576 0.421021
0.166473 0.271576 0.421021
0.166473 0.271576 0.421021
0.166473 0.271576 0.421021
0.207794 0.337097 0.516510
0.207794 0.337097 0.516510
0.201508 0.338135 0.517426
0.201508 0.338135 0.517426
0.201508 0.338135 0.517426
0.201508 0.338135 0.517426
0.201508 0.338135 0.517426
0.201508 0.338135 0.517426
0.245789 0.454163 0.683502
0.236938 0.456329 0.685516
0.227600 0.458649 0.687714
0.227600 0.458649 0.687714
0.216888 0.461517 0.690491
0.216888 0.461517 0.690491
0.205322 0.464874 0.693756
0.205322 0.464874 0.693756
0.225403 0.610962 0.906708
0.226593 0.617737 0.917084
0.226013 0.619965 0.921051
0.226044 0.625549 0.930176
0.226654 0.628937 0.935333
0.226105 0.631195 0.939331
0.226654 0.634521 0.944458
0.226105 0.636780 0.948456
0.021698 0.038727 0.094574
0.042023 0.077026 0.150848
0.589142 0.871948 1.000000
0.589142 0.871948 1.000000
0.050079 0.102051 0.183136
0.045990 0.093201 0.178528
0.031860 0.058777 0.123077
0.586731 0.871185 1.000000
0.142822 0.402130 0.612091
0.144104 0.408875 0.622559
0.147034 0.420227 0.639282
0.148315 0.426971 0.649689
0.061401 0.155182 0.254913
0.062592 0.156372 0.256104
0.062592 0.156372 0.256104
0.062592 0.156372 0.256104
0.100250 0.240540 0.372437
0.100830 0.243927 0.377533
0.101501 0.247253 0.382782
0.102600 0.248505 0.383911
0.103333 0.251801 0.389130
0.103912 0.255188 0.394348
0.104523 0.258545 0.399536
0.105591 0.259766 0.400726
0.096130 0.177979 0.284241
0.094238 0.182373 0.290771
0.098785 0.182068 0.290619
0.098785 0.182068 0.290619
0.096436 0.186768 0.296906
0.096436 0.186768 0.296906
0.093689 0.191559 0.303528
0.093689 0.191559 0.303528
0.172668 0.270599 0.420166
0.172668 0.270599 0.420166
0.172668 0.270599 0.420166
0.172668 0.270599 0.420166
0.172668 0.270599 0.420166
0.169983 0.275360 0.426849
0.169983 0.275360 0.426849
0.169983 0.275360 0.426849
0.207794 0.337097 0.516510
0.207794 0.337097 0.516510
0.204407 0.342194 0.523376
0.204407 0.342194 0.523376
0.204407 0.342194 0.523376
0.204407 0.342194 0.523376
0.197693 0.343414 0.524475
0.197693 0.343414 0.524475
0.240112 0.460236 0.691254
0.240112 0.460236 0.691254
0.230896 0.462494 0.693481
0.230896 0.462494 0.693481
0.220612 0.465210 0.696045
0.220612 0.465210 0.696045
0.208893 0.468597 0.699371
0.208893 0.468597 0.699371
0.226593 0.617737 0.917084
0.227814 0.624481 0.927460
0.227264 0.626740 0.931458
0.227264 0.632324 0.940552
0.227875 0.635712 0.945709
0.227844 0.641327 0.954803
0.227234 0.643555 0.958771
0.227844 0.646912 0.963928
0.042023 0.077026 0.150848
0.066498 0.137512 0.233307
0.586731 0.871185 1.000000
0.586731 0.871185 1.000000
0.586731 0.871185 1.000000
0.586731 0.871185 1.000000
0.586731 0.871185 1.000000
0.584259 0.870453 1.000000
0.139862 0.390808 0.595398
0.142822 0.402130 0.612091
0.144104 0.408875 0.622559
0.145264 0.415680 0.632843
0.146515 0.422394 0.643280
0.060638 0.151978 0.249542
0.062042 0.152985 0.250977
0.062042 0.152985 0.250977
0.101685 0.236237 0.366486
0.100250 0.240540 0.372437
0.100830 0.243927 0.377533
0.101501 0.247253 0.382782
0.102600 0.248505 0.383911
0.103333 0.251801 0.389130
0.103912 0.255188 0.394348
0.104523 0.258545 0.399536
0.096130 0.177979 0.284241
0.096130 0.177979 0.284241
0.094238 0.182373 0.290771
0.098785 0.182068 0.290619
0.096436 0.186768 0.296906
0.096436 0.186768 0.296906
0.096436 0.186768 0.296906
0.093689 0.191559 0.303528
0.169983 0.275360 0.426849
0.169983 0.275360 0.426849
0.169983 0.275360 0.426849
0.169983 0.275360 0.426849
0.169983 0.275360 0.426849
0.169983 0.275360 0.426849
0.169983 0.275360 0.426849
0.169983 0.275360 0.426849
0.210602 0.341187 0.522461
0.210602 0.341187 0.522461
0.204407 0.342194 0.523376
0.204407 0.342194 0.523376
0.204407 0.342194 0.523376
0.204407 0.342194 0.523376
0.204407 0.342194 0.523376
0.200684 0.347412 0.530304
0.243225 0.464233 0.697113
0.234283 0.466370 0.699188
0.234283 0.466370 0.699188
0.223328 0.469391 0.702026
0.223328 0.469391 0.702026
0.212189 0.472504 0.705231
0.212189 0.472504 0.705231
0.200287 0.475952 0.708435
0.227814 0.624481 0.927460
0.227844 0.630066 0.936584
0.229034 0.636871 0.946930
0.228424 0.639099 0.950836
0.228455 0.644684 0.959991
0.229034 0.648102 0.965118
0.228485 0.650299 0.969147
0.229095 0.653656 0.974335
0.037384 0.068420 0.142151
0.584259 0.870453 1.000000
0.584259 0.870453 1.000000
0.584259 0.870453 1.000000
0.584259 0.870453 1.000000
0.584259 0.870453 1.000000
0.584259 0.870453 1.000000
0.584259 0.870453 1.000000
0.138641 0.384064 0.585052
0.139862 0.390808 0.595398
0.141113 0.397583 0.605835
0.144104 0.408875 0.622559
0.145264 0.415680 0.632843
0.146515 0.422394 0.643280
0.060120 0.148499 0.244324
0.061279 0.149689 0.245697
0.098450 0.235992 0.365997
0.101685 0.236237 0.366486
0.100250 0.240540 0.372437
0.100830 0.243927 0.377533
0.101501 0.247253 0.382782
0.101501 0.247253 0.382782
0.103333 0.251801 0.389130
0.103912 0.255188 0.394348
0.096130 0.177979 0.284241
0.096130 0.177979 0.284241
0.094238 0.182373 0.290771
0.094238 0.182373 0.290771
0.098785 0.182068 0.290619
0.096436 0.186768 0.296906
0.096436 0.186768 0.296906
0.096436 0.186768 0.296906
0.169983 0.275360 0.426849
0.169983 0.275360 0.426849
0.169983 0.275360 0.426849
0.169983 0.275360 0.426849
0.169983 0.275360 0.426849
0.169983 0.275360 0.426849
0.169983 0.275360 0.426849
0.166595 0.280487 0.433655
0.207275 0.346283 0.529266
0.207275 0.346283 0.529266
0.207275 0.346283 0.529266
0.207275 0.346283 0.529266
0.207275 0.346283 0.529266
0.207275 0.346283 0.529266
0.207275 0.346283 0.529266
0.200684 0.347412 0.530304
0.236755 0.470612 0.705261
0.236755 0.470612 0.705261
0.227356 0.472931 0.707581
0.227356 0.472931 0.707581
0.214966 0.476624 0.711121
0.214966 0.476624 0.711121
0.203064 0.480042 0.714294
0.203064 0.480042 0.714294
0.227264 0.626740 0.931458
0.229034 0.636871 0.946930
0.229095 0.642456 0.956085
0.230255 0.649200 0.966400
0.229675 0.651459 0.970367
0.229675 0.657074 0.979492
0.230255 0.660431 0.984650
0.229675 0.662659 0.988617
0.038025 0.071777 0.143280
0.581879 0.869690 1.000000
0.581879 0.869690 1.000000
0.581879 0.869690 1.000000
0.581879 0.869690 1.000000
0.581879 0.869690 1.000000
0.581879 0.869690 1.000000
0.581879 0.869690 1.000000
0.136292 0.376129 0.573517
0.138641 0.384064 0.585052
0.139862 0.390808 0.595398
0.141113 0.397583 0.605835
0.142212 0.404388 0.616028
0.144653 0.412262 0.627655
0.145844 0.419037 0.638031
0.059723 0.145050 0.239441
0.098694 0.232239 0.360504
0.098450 0.235992 0.365997
0.099030 0.239441 0.371155
0.100250 0.240540 0.372437
0.100830 0.243927 0.377533
0.101501 0.247253 0.382782
0.101501 0.247253 0.382782
0.103333 0.251801 0.389130
0.096130 0.177979 0.284241
0.096130 0.177979 0.284241
0.096130 0.177979 0.284241
0.094238 0.182373 0.290771
0.094238 0.182373 0.290771
0.098785 0.182068 0.290619
0.096436 0.186768 0.296906
0.096436 0.186768 0.296906
0.176086 0.274384 0.426025
0.176086 0.274384 0.426025
0.176086 0.274384 0.426025
0.172882 0.279388 0.432739
0.172882 0.279388 0.432739
0.172882 0.279388 0.432739
0.172882 0.279388 0.432739
0.172882 0.279388 0.432739
0.213989 0.345062 0.528259
0.210114 0.350403 0.535248
0.210114 0.350403 0.535248
0.203461 0.351532 0.536377
0.203461 0.351532 0.536377
0.203461 0.351532 0.536377
0.203461 0.351532 0.536377
0.203461 0.351532 0.536377
0.240692 0.474243 0.710846
0.230133 0.477112 0.713562
0.230133 0.477112 0.713562
0.218048 0.480652 0.716919
0.218048 0.480652 0.716919
0.206421 0.483948 0.720154
0.206421 0.483948 0.720154
0.194916 0.487213 0.723297
0.229034 0.636871 0.946930
0.229095 0.642456 0.956085
0.230255 0.649200 0.966400
0.230286 0.654816 0.975525
0.231476 0.661621 0.985870
0.231476 0.667206 0.994995
0.232300 0.670532 1.000000
0.234894 0.671875 1.000000
0.579376 0.868927 1.000000
0.579376 0.868927 1.000000
0.579376 0.868927 1.000000
0.579376 0.868927 1.000000
0.581879 0.869690 1.000000
0.581879 0.869690 1.000000
0.581879 0.869690 1.000000
0.579376 0.868927 1.000000
0.134491 0.365997 0.557953
0.136292 0.376129 0.573517
0.137482 0.382904 0.583862
0.139862 0.390808 0.595398
0.140472 0.394226 0.600555
0.141632 0.401001 0.610870
0.142914 0.407745 0.621338
0.058990 0.141663 0.234131
0.098694 0.232239 0.360504
0.098694 0.232239 0.360504
0.098450 0.235992 0.365997
0.099030 0.239441 0.371155
0.100250 0.240540 0.372437
0.100830 0.243927 0.377533
0.101501 0.247253 0.382782
0.101501 0.247253 0.382782
0.093811 0.173645 0.278290
0.096130 0.177979 0.284241
0.096130 0.177979 0.284241
0.096130 0.177979 0.284241
0.094238 0.182373 0.290771
0.094238 0.182373 0.290771
0.098785 0.182068 0.290619
0.096436 0.186768 0.296906
0.172882 0.279388 0.432739
0.172882 0.279388 0.432739
0.172882 0.279388 0.432739
0.172882 0.279388 0.432739
0.172882 0.279388 0.432739
0.172882 0.279388 0.432739
0.172882 0.279388 0.432739
0.172882 0.279388 0.432739
0.216248 0.349426 0.534393
0.210114 0.350403 0.535248
0.210114 0.350403 0.535248
0.210114 0.350403 0.535248
0.210114 0.350403 0.535248
0.210114 0.350403 0.535248
0.206116 0.355743 0.542236
0.199646 0.356842 0.543396
0.243134 0.478485 0.716858
0.232941 0.481201 0.719421
0.222198 0.484131 0.722412
0.222198 0.484131 0.722412
0.209869 0.487762 0.725861
0.209869 0.487762 0.725861
0.197296 0.491516 0.729492
0.197296 0.491516 0.729492
0.230225 0.643616 0.957245
0.230255 0.649200 0.966400
0.230896 0.658203 0.980743
0.232086 0.664978 0.991089
0.232300 0.670532 1.000000
0.241913 0.674957 1.000000
0.244568 0.676300 1.000000
0.249268 0.678528 1.000000
0.576996 0.868195 1.000000
0.576996 0.868195 1.000000
0.579376 0.868927 1.000000
0.579376 0.868927 1.000000
0.579376 0.868927 1.000000
0.579376 0.868927 1.000000
0.576996 0.868195 1.000000
0.576996 0.868195 1.000000
0.132080 0.358063 0.546387
0.133209 0.364868 0.556641
0.135651 0.372711 0.568298
0.136780 0.379547 0.578552
0.138062 0.386261 0.588989
0.140472 0.394226 0.600555
0.141113 0.397583 0.605835
0.142212 0.404388 0.616028
0.096466 0.227875 0.354309
0.098694 0.232239 0.360504
0.098694 0.232239 0.360504
0.098450 0.235992 0.365997
0.099030 0.239441 0.371155
0.100250 0.240540 0.372437
0.100830 0.243927 0.377533
0.101501 0.247253 0.382782
0.093811 0.173645 0.278290
0.093811 0.173645 0.278290
0.096130 0.177979 0.284241
0.096130 0.177979 0.284241
0.096130 0.177979 0.284241
0.094238 0.182373 0.290771
0.094238 0.182373 0.290771
0.098785 0.182068 0.290619
0.178925 0.278473 0.431946
0.178925 0.278473 0.431946
0.172882 0.279388 0.432739
0.172882 0.279388 0.432739
0.172882 0.279388 0.432739
0.169464 0.284515 0.439636
0.169464 0.284515 0.439636
0.169464 0.284515 0.439636
0.212982 0.354431 0.541168
0.212982 0.354431 0.541168
0.212982 0.354431 0.541168
0.212982 0.354431 0.541168
0.206116 0.355743 0.542236
0.206116 0.355743 0.542236
0.206116 0.355743 0.542236
0.206116 0.355743 0.542236
0.236847 0.484833 0.725037
0.236847 0.484833 0.725037
0.224335 0.488556 0.728546
0.213257 0.491608 0.731628
0.213257 0.491608 0.731628
0.200806 0.495331 0.735199
0.200806 0.495331 0.735199
0.196075 0.495636 0.735443
0.230255 0.649200 0.966400
0.232086 0.659393 0.981964
0.232666 0.668365 0.996216
0.237091 0.672729 1.000000
0.246674 0.677185 1.000000
0.254089 0.680664 1.000000
0.263763 0.685089 1.000000
0.266418 0.686432 1.000000
0.455353 0.822968 1.000000
0.576996 0.868195 1.000000
0.576996 0.868195 1.000000
0.576996 0.868195 1.000000
0.576996 0.868195 1.000000
0.576996 0.868195 1.000000
0.574524 0.867432 1.000000
0.574524 0.867432 1.000000
0.131439 0.354767 0.541168
0.132080 0.358063 0.546387
0.133209 0.364868 0.556641
0.134430 0.371643 0.567017
0.136780 0.379547 0.578552
0.138062 0.386261 0.588989
0.138641 0.389740 0.594147
0.140472 0.394226 0.600555
0.099976 0.222717 0.347534
0.096466 0.227875 0.354309
0.098694 0.232239 0.360504
0.098694 0.232239 0.360504
0.098450 0.235992 0.365997
0.099030 0.239441 0.371155
0.099030 0.239441 0.371155
0.100830 0.243927 0.377533
0.093811 0.173645 0.278290
0.093811 0.173645 0.278290
0.093811 0.173645 0.278290
0.096130 0.177979 0.284241
0.096130 0.177979 0.284241
0.096130 0.177979 0.284241
0.094238 0.182373 0.290771
0.094238 0.182373 0.290771
0.175812 0.283478 0.438721
0.175812 0.283478 0.438721
0.175812 0.283478 0.438721
0.175812 0.283478 0.438721
0.175812 0.283478 0.438721
0.175812 0.283478 0.438721
0.175812 0.283478 0.438721
0.175812 0.283478 0.438721
0.216339 0.358337 0.547058
0.216339 0.358337 0.547058
0.209473 0.359589 0.548126
0.209473 0.359589 0.548126
0.209473 0.359589 0.548126
0.209473 0.359589 0.548126
0.209473 0.359589 0.548126
0.209473 0.359589 0.548126
0.239655 0.488922 0.730927
0.228668 0.491974 0.733948
0.228668 0.491974 0.733948
0.216278 0.495605 0.737427
0.204224 0.499146 0.740967
0.204224 0.499146 0.740967
0.197876 0.500183 0.741791
0.197876 0.500183 0.741791
0.231415 0.655975 0.976715
0.232666 0.668365 0.996216
0.244049 0.675873 1.000000
0.251495 0.679413 1.000000
0.263763 0.685089 1.000000
0.273407 0.689514 1.000000
0.276031 0.690826 1.000000
0.285706 0.695251 1.000000
0.489227 0.841003 1.000000
0.419830 0.790527 1.000000
0.574524 0.867432 1.000000
0.574524 0.867432 1.000000
0.574524 0.867432 1.000000
0.574524 0.867432 1.000000
0.574524 0.867432 1.000000
0.574524 0.867432 1.000000
0.129028 0.346802 0.529602
0.130219 0.353607 0.539886
0.132080 0.358063 0.546387
0.133209 0.364868 0.556641
0.134430 0.371643 0.567017
0.135010 0.375000 0.572205
0.137482 0.382904 0.583862
0.138062 0.386261 0.588989
0.099976 0.222717 0.347534
0.096466 0.227875 0.354309
0.096466 0.227875 0.354309
0.098694 0.232239 0.360504
0.098694 0.232239 0.360504
0.098450 0.235992 0.365997
0.099030 0.239441 0.371155
0.099030 0.239441 0.371155
0.093811 0.173645 0.278290
0.093811 0.173645 0.278290
0.093811 0.173645 0.278290
0.090393 0.178772 0.284912
0.096130 0.177979 0.284241
0.096130 0.177979 0.284241
0.094238 0.182373 0.290771
0.094238 0.182373 0.290771
