res/luts/custom.CUBE
#Created by: Adobe Photoshop Export Color Lookup Plugin
TITLE "Custom Grading Effect"
#LUT size
LUT_3D_SIZE 8
#data domain
#LUT data points
DOMAIN_MIN 0.000000 0.000000 0.000000
DOMAIN_MAX 0.903226 0.903226 0.903226
0.000000 0.000000 0.000000
0.000000 0.000000 0.000000
0.000000 0.000000 0.000000
0.000000 0.000000 0.000000
0.000000 0.000000 0.000000
0.000000 0.000000 0.000000
0.000000 0.000000 0.000000
0.000000 0.000000 0.000000
0.000000 0.000000 0.000000
0.000000 0.000000 0.000000
0.000000 0.000000 0.000000
0.000000 0.000000 0.000000
0.000000 0.000000 0.000000
0.000000 0.000000 0.000000
0.000000 0.000000 0.000000
0.000000 0.000000 0.000000
0.023987 0.002075 0.004608
0.033203 0.003265 0.006805
0.042267 0.004578 0.009125
0.042267 0.004578 0.009125
0.050995 0.005981 0.011536
0.050995 0.005981 0.011536
0.059509 0.007507 0.014008
0.059509 0.007507 0.014008
0.234436 0.076355 0.106110
0.245331 0.082764 0.113831
0.255371 0.088867 0.121094
0.270477 0.098419 0.132355
0.275665 0.101776 0.136322
0.285339 0.108185 0.143768
0.290405 0.111633 0.147766
0.299927 0.118195 0.155304
0.000000 0.000000 0.000000
0.000000 0.000000 0.000000
0.783844 0.649261 0.686157
0.783844 0.649261 0.686157
0.000000 0.000000 0.000000
0.000000 0.000000 0.000000
0.000000 0.000000 0.000000
0.787018 0.653931 0.690460
0.200745 0.057983 0.083466
0.212128 0.063934 0.090912
0.224091 0.070465 0.098938
0.235107 0.076752 0.106598
0.000000 0.000000 0.000000
0.000000 0.000000 0.000000
0.000000 0.000000 0.000000
0.000000 0.000000 0.000000
0.000000 0.000000 0.000000
0.000000 0.000000 0.000000
0.000000 0.000000 0.000000
0.000000 0.000000 0.000000
0.000000 0.000000 0.000000
0.000000 0.000000 0.000000
0.000000 0.000000 0.000000
0.000000 0.000000 0.000000
0.000000 0.000000 0.000000
0.000000 0.000000 0.000000
0.000000 0.000000 0.000000
0.000000 0.000000 0.000000
0.000000 0.000000 0.000000
0.000000 0.000000 0.000000
0.000000 0.000000 0.000000
0.000000 0.000000 0.000000
0.000000 0.000000 0.000000
0.000000 0.000000 0.000000
0.000000 0.000000 0.000000
0.000000 0.000000 0.000000
0.000000 0.000000 0.000000
0.000000 0.000000 0.000000
0.000000 0.000000 0.000000
0.000000 0.000000 0.000000
0.000000 0.000000 0.000000
0.000000 0.000000 0.000000
0.000000 0.000000 0.000000
0.000000 0.000000 0.000000
0.000000 0.000000 0.000000
0.000000 0.000000 0.000000
0.000000 0.000000 0.000000
0.000000 0.000000 0.000000
0.034546 0.003448 0.007141
0.034546 0.003448 0.007141
0.043518 0.004761 0.009460
0.043518 0.004761 0.009460
0.052277 0.006226 0.011902
0.052277 0.006226 0.011902
0.060699 0.007721 0.014374
0.060699 0.007721 0.014374
0.245331 0.082764 0.113831
0.256042 0.089294 0.121613
0.265930 0.095459 0.128937
0.280884 0.105194 0.140320
0.285980 0.108612 0.144287
0.300568 0.118652 0.155823
0.309998 0.125305 0.163422
0.314911 0.128876 0.167480
0.000000 0.000000 0.000000
0.000000 0.000000 0.000000
0.787018 0.653931 0.690460
0.787018 0.653931 0.690460
0.787018 0.653931 0.690460
0.787018 0.653931 0.690460
0.787018 0.653931 0.690460
0.790222 0.658691 0.694794
0.188324 0.051788 0.075623
0.200745 0.057983 0.083466
0.212128 0.063934 0.090912
0.223358 0.070068 0.098450
0.234375 0.076324 0.106049
0.000000 0.000000 0.000000
0.000000 0.000000 0.000000
0.000000 0.000000 0.000000
0.000000 0.000000 0.000000
0.000000 0.000000 0.000000
0.000000 0.000000 0.000000
0.000000 0.000000 0.000000
0.000000 0.000000 0.000000
0.000000 0.000000 0.000000
0.000000 0.000000 0.000000
0.000000 0.000000 0.000000
0.000000 0.000000 0.000000
0.000000 0.000000 0.000000
0.000000 0.000000 0.000000
0.000000 0.000000 0.000000
0.000000 0.000000 0.000000
0.000000 0.000000 0.000000
0.000000 0.000000 0.000000
0.000000 0.000000 0.000000
0.000000 0.000000 0.000000
0.000000 0.000000 0.000000
0.000000 0.000000 0.000000
0.000000 0.000000 0.000000
0.000000 0.000000 0.000000
0.000000 0.000000 0.000000
0.000000 0.000000 0.000000
0.000000 0.000000 0.000000
0.000000 0.000000 0.000000
0.000000 0.000000 0.000000
0.000000 0.000000 0.000000
0.000000 0.000000 0.000000
0.000000 0.000000 0.000000
0.000000 0.000000 0.000000
0.000000 0.000000 0.000000
0.000000 0.000000 0.000000
0.035919 0.003632 0.007477
0.044891 0.005005 0.009827
0.044891 0.005005 0.009827
0.053558 0.006439 0.012238
0.053558 0.006439 0.012238
0.061981 0.007935 0.014740
0.061981 0.007935 0.014740
0.070068 0.009552 0.017303
0.256042 0.089294 0.121613
0.271118 0.098816 0.132843
0.281494 0.105621 0.140808
0.291107 0.112091 0.148315
0.305634 0.122192 0.159882
0.310577 0.125732 0.163910
0.319916 0.132507 0.171600
0.324829 0.136139 0.175690
0.000000 0.000000 0.000000
0.790222 0.658691 0.694794
0.790222 0.658691 0.694794
0.790222 0.658691 0.694794
0.790222 0.658691 0.694794
0.790222 0.658691 0.694794
0.790222 0.658691 0.694794
0.790222 0.658691 0.694794
0.176422 0.046112 0.068359
0.188324 0.051788 0.075623
0.199951 0.057587 0.082977
0.212128 0.063934 0.090912
0.223358 0.070068 0.098450
0.234375 0.076324 0.106049
0.000000 0.000000 0.000000
0.000000 0.000000 0.000000
0.000000 0.000000 0.000000
0.000000 0.000000 0.000000
0.000000 0.000000 0.000000
0.000000 0.000000 0.000000
0.000000 0.000000 0.000000
0.000000 0.000000 0.000000
0.000000 0.000000 0.000000
0.000000 0.000000 0.000000
0.000000 0.000000 0.000000
0.000000 0.000000 0.000000
0.000000 0.000000 0.000000
0.000000 0.000000 0.000000
0.000000 0.000000 0.000000
0.000000 0.000000 0.000000
0.000000 0.000000 0.000000
0.000000 0.000000 0.000000
0.000000 0.000000 0.000000
0.000000 0.000000 0.000000
0.000000 0.000000 0.000000
0.000000 0.000000 0.000000
0.000000 0.000000 0.000000
0.000000 0.000000 0.000000
0.000000 0.000000 0.000000
0.000000 0.000000 0.000000
0.000000 0.000000 0.000000
0.000000 0.000000 0.000000
0.000000 0.000000 0.000000
0.000000 0.000000 0.000000
0.000000 0.000000 0.000000
0.000000 0.000000 0.000000
0.000000 0.000000 0.000000
0.000000 0.000000 0.000000
0.046112 0.005157 0.010162
0.046112 0.005157 0.010162
0.054810 0.006653 0.012604
0.054810 0.006653 0.012604
0.063141 0.008179 0.015106
0.063141 0.008179 0.015106
0.071228 0.009796 0.017670
0.071228 0.009796 0.017670
0.265930 0.095459 0.128937
0.281494 0.105621 0.140808
0.296204 0.115601 0.152344
0.306244 0.122650 0.160400
0.315613 0.129364 0.168060
0.329742 0.139801 0.179810
0.334625 0.143494 0.183960
0.343658 0.150452 0.191711
0.000000 0.000000 0.000000
0.793396 0.663391 0.699127
0.793396 0.663391 0.699127
0.793396 0.663391 0.699127
0.793396 0.663391 0.699127
0.793396 0.663391 0.699127
0.793396 0.663391 0.699127
0.793396 0.663391 0.699127
0.169586 0.042999 0.064301
0.176422 0.046112 0.068359
0.188324 0.051788 0.075623
0.199951 0.057587 0.082977
0.211395 0.063568 0.090424
0.217804 0.067017 0.094696
0.228912 0.073181 0.102264
0.000000 0.000000 0.000000
0.000000 0.000000 0.000000
0.000000 0.000000 0.000000
0.000000 0.000000 0.000000
0.000000 0.000000 0.000000
0.000000 0.000000 0.000000
0.000000 0.000000 0.000000
0.000000 0.000000 0.000000
0.000000 0.000000 0.000000
0.000000 0.000000 0.000000
0.000000 0.000000 0.000000
0.000000 0.000000 0.000000
0.000000 0.000000 0.000000
0.000000 0.000000 0.000000
0.000000 0.000000 0.000000
0.000000 0.000000 0.000000
0.000000 0.000000 0.000000
0.000000 0.000000 0.000000
0.000000 0.000000 0.000000
0.000000 0.000000 0.000000
0.000000 0.000000 0.000000
0.000000 0.000000 0.000000
0.000000 0.000000 0.000000
0.000000 0.000000 0.000000
0.000000 0.000000 0.000000
0.000000 0.000000 0.000000
0.000000 0.000000 0.000000
0.000000 0.000000 0.000000
0.000000 0.000000 0.000000
0.000000 0.000000 0.000000
0.000000 0.000000 0.000000
0.000000 0.000000 0.000000
0.000000 0.000000 0.000000
0.047577 0.005402 0.010559
0.056152 0.006866 0.013000
0.056152 0.006866 0.013000
0.064484 0.008423 0.015503
0.064484 0.008423 0.015503
0.072449 0.010040 0.018066
0.072449 0.010040 0.018066
0.080170 0.011719 0.020721
0.281494 0.105621 0.140808
0.296204 0.115601 0.152344
0.306244 0.122650 0.160400
0.320526 0.132965 0.172119
0.330353 0.140289 0.180328
0.344299 0.150940 0.192230
0.349152 0.154724 0.196442
0.358032 0.161774 0.204224
0.796570 0.668121 0.703491
0.796570 0.668121 0.703491
0.796570 0.668121 0.703491
0.796570 0.668121 0.703491
0.793396 0.663391 0.699127
0.793396 0.663391 0.699127
0.793396 0.663391 0.699127
0.796570 0.668121 0.703491
0.150940 0.034973 0.053711
0.169586 0.042999 0.064301
0.181641 0.048584 0.071503
0.188324 0.051788 0.075623
0.194153 0.054657 0.079254
0.205688 0.060547 0.086670
0.217010 0.066559 0.094147
0.000000 0.000000 0.000000
0.000000 0.000000 0.000000
0.000000 0.000000 0.000000
0.000000 0.000000 0.000000
0.000000 0.000000 0.000000
0.000000 0.000000 0.000000
0.000000 0.000000 0.000000
0.000000 0.000000 0.000000
0.000000 0.000000 0.000000
0.000000 0.000000 0.000000
0.000000 0.000000 0.000000
0.000000 0.000000 0.000000
0.000000 0.000000 0.000000
0.000000 0.000000 0.000000
0.000000 0.000000 0.000000
0.000000 0.000000 0.000000
0.000000 0.000000 0.000000
0.000000 0.000000 0.000000
0.000000 0.000000 0.000000
0.000000 0.000000 0.000000
0.000000 0.000000 0.000000
0.000000 0.000000 0.000000
0.000000 0.000000 0.000000
0.000000 0.000000 0.000000
0.000000 0.000000 0.000000
0.000000 0.000000 0.000000
0.000000 0.000000 0.000000
0.000000 0.000000 0.000000
0.000000 0.000000 0.000000
0.000000 0.000000 0.000000
0.000000 0.000000 0.000000
0.000000 0.000000 0.000000
0.000000 0.000000 0.000000
0.048767 0.005615 0.010895
0.057373 0.007080 0.013367
0.065613 0.008636 0.015869
0.065613 0.008636 0.015869
0.073608 0.010284 0.018463
0.073608 0.010284 0.018463
0.081207 0.011963 0.021088
0.081207 0.011963 0.021088
0.291779 0.112549 0.148804
0.306244 0.122650 0.160400
0.325439 0.136597 0.176239
0.335236 0.143982 0.184479
0.349152 0.154724 0.196442
0.358673 0.162323 0.204803
0.367523 0.169464 0.212677
0.372223 0.173340 0.216919
0.799744 0.672821 0.707794
0.799744 0.672821 0.707794
0.796570 0.668121 0.703491
0.796570 0.668121 0.703491
0.796570 0.668121 0.703491
0.796570 0.668121 0.703491
0.799744 0.672821 0.707794
0.799744 0.672821 0.707794
0.143738 0.032074 0.049774
0.156403 0.037231 0.056732
0.163452 0.040283 0.060760
0.175659 0.045746 0.067902
0.187531 0.051392 0.075134
0.194153 0.054657 0.079254
0.199951 0.057587 0.082977
0.211395 0.063568 0.090424
0.000000 0.000000 0.000000
0.000000 0.000000 0.000000
0.000000 0.000000 0.000000
0.000000 0.000000 0.000000
0.000000 0.000000 0.000000
0.000000 0.000000 0.000000
0.000000 0.000000 0.000000
0.000000 0.000000 0.000000
0.000000 0.000000 0.000000
0.000000 0.000000 0.000000
0.000000 0.000000 0.000000
0.000000 0.000000 0.000000
0.000000 0.000000 0.000000
0.000000 0.000000 0.000000
0.000000 0.000000 0.000000
0.000000 0.000000 0.000000
0.000000 0.000000 0.000000
0.000000 0.000000 0.000000
0.000000 0.000000 0.000000
0.000000 0.000000 0.000000
0.000000 0.000000 0.000000
0.000000 0.000000 0.000000
0.000000 0.000000 0.000000
0.000000 0.000000 0.000000
0.000000 0.000000 0.000000
0.000000 0.000000 0.000000
0.000000 0.000000 0.000000
0.000000 0.000000 0.000000
0.000000 0.000000 0.000000
0.000000 0.000000 0.000000
0.000000 0.000000 0.000000
0.000000 0.000000 0.000000
0.058624 0.007324 0.013733
0.058624 0.007324 0.013733
0.066895 0.008911 0.016266
0.074768 0.010529 0.018860
0.074768 0.010529 0.018860
0.082367 0.012238 0.021515
0.082367 0.012238 0.021515
0.089569 0.014008 0.024200
0.306244 0.122650 0.160400
0.321167 0.133453 0.172668
0.340057 0.147675 0.188599
0.353882 0.158478 0.200592
0.363434 0.166138 0.209015
0.376892 0.177216 0.221100
0.386230 0.185059 0.229645
0.394897 0.192505 0.237671
0.912231 0.849701 0.867584
0.799744 0.672821 0.707794
0.799744 0.672821 0.707794
0.799744 0.672821 0.707794
0.799744 0.672821 0.707794
0.799744 0.672821 0.707794
0.802917 0.677582 0.712158
0.802917 0.677582 0.712158
0.137238 0.029541 0.046356
0.143738 0.032074 0.049774
0.156403 0.037231 0.056732
0.168762 0.042633 0.063843
0.175659 0.045746 0.067902
0.187531 0.051392 0.075134
0.193451 0.054321 0.078827
0.194153 0.054657 0.079254
0.000000 0.000000 0.000000
0.000000 0.000000 0.000000
0.000000 0.000000 0.000000
0.000000 0.000000 0.000000
0.000000 0.000000 0.000000
0.000000 0.000000 0.000000
0.000000 0.000000 0.000000
0.000000 0.000000 0.000000
0.000000 0.000000 0.000000
0.000000 0.000000 0.000000
0.000000 0.000000 0.000000
0.000000 0.000000 0.000000
0.000000 0.000000 0.000000
0.000000 0.000000 0.000000
0.000000 0.000000 0.000000
0.000000 0.000000 0.000000
0.000000 0.000000 0.000000
0.000000 0.000000 0.000000
0.000000 0.000000 0.000000
0.000000 0.000000 0.000000
0.000000 0.000000 0.000000
0.000000 0.000000 0.000000
0.000000 0.000000 0.000000
0.000000 0.000000 0.000000
0.000000 0.000000 0.000000
0.000000 0.000000 0.000000
0.000000 0.000000 0.000000
0.000000 0.000000 0.000000
0.000000 0.000000 0.000000
0.000000 0.000000 0.000000
0.000000 0.000000 0.000000
0.000000 0.000000 0.000000
0.059906 0.007568 0.014130
0.068054 0.009125 0.016663
0.068054 0.009125 0.016663
0.075958 0.010803 0.019257
0.083466 0.012512 0.021912
0.083466 0.012512 0.021912
0.090668 0.014282 0.024597
0.090668 0.014282 0.024597
0.316223 0.129822 0.168549
0.340057 0.147675 0.188599
0.354492 0.158997 0.201141
0.368164 0.170013 0.213226
0.386230 0.185059 0.229645
0.395477 0.192993 0.238220
0.404083 0.200531 0.246277
0.413208 0.208618 0.254944
0.911530 0.848480 0.866516
0.850922 0.751068 0.779083
0.802917 0.677582 0.712158
0.802917 0.677582 0.712158
0.802917 0.677582 0.712158
0.802917 0.677582 0.712158
0.802917 0.677582 0.712158
0.802917 0.677582 0.712158
0.129852 0.026794 0.042542
0.142914 0.031738 0.049347
0.143738 0.032074 0.049774
0.156403 0.037231 0.056732
0.168762 0.042633 0.063843
0.174835 0.045380 0.067413
0.181641 0.048584 0.071503
0.187531 0.051392 0.075134
0.000000 0.000000 0.000000
0.000000 0.000000 0.000000
0.000000 0.000000 0.000000
0.000000 0.000000 0.000000
0.000000 0.000000 0.000000
0.000000 0.000000 0.000000
0.000000 0.000000 0.000000
0.000000 0.000000 0.000000
0.000000 0.000000 0.000000
0.000000 0.000000 0.000000
0.000000 0.000000 0.000000
0.000000 0.000000 0.000000
0.000000 0.000000 0.000000
0.000000 0.000000 0.000000
0.000000 0.000000 0.000000
0.000000 0.000000 0.000000
