res/luts/custom.CUBE
#Created by: Adobe Photoshop Export Color Lookup Plugin
TITLE "Custom Grading Effect"
#LUT size
LUT_3D_SIZE 5
#data domain
#LUT data points
DOMAIN_MIN 0.000000 0.000000 0.000000
DOMAIN_MAX 0.903226 0.903226 0.903226
0.000000 0.000000 0.000000
0.000000 0.000000 0.000000
0.000000 0.000000 0.000000
0.000000 0.000000 0.000000
0.000000 0.000000 0.000000
0.000000 0.000000 0.000000
0.002747 0.000122 0.000366
0.002747 0.000122 0.000366
0.012512 0.000854 0.002136
0.022003 0.001862 0.004150
0.000000 0.000000 0.000000
0.000000 0.000000 0.000000
0.000000 0.000000 0.000000
0.000000 0.000000 0.000000
0.000000 0.000000 0.000000
0.116302 0.022034 0.035889
0.136414 0.029236 0.045929
0.150146 0.034637 0.053253
0.168762 0.042633 0.063843
0.180847 0.048187 0.071045
0.000000 0.000000 0.000000
0.000000 0.000000 0.000000
0.000000 0.000000 0.000000
0.000000 0.000000 0.000000
0.000000 0.000000 0.000000
0.000000 0.000000 0.000000
0.000000 0.000000 0.000000
0.000000 0.000000 0.000000
0.000000 0.000000 0.000000
0.000000 0.000000 0.000000
0.005737 0.000305 0.000854
0.005737 0.000305 0.000854
0.015442 0.001160 0.002716
0.024872 0.002197 0.004791
0.024872 0.002197 0.004791
0.000000 0.000000 0.000000
0.000000 0.000000 0.000000
0.000000 0.000000 0.000000
0.000000 0.000000 0.000000
0.000000 0.000000 0.000000
0.101196 0.017212 0.028931
0.122223 0.024048 0.038757
0.136414 0.029236 0.045929
0.149323 0.034302 0.052826
0.156403 0.037231 0.056732
0.000000 0.000000 0.000000
0.000000 0.000000 0.000000
0.000000 0.000000 0.000000
0.000000 0.000000 0.000000
0.000000 0.000000 0.000000
0.000000 0.000000 0.000000
0.000000 0.000000 0.000000
0.000000 0.000000 0.000000
0.000000 0.000000 0.000000
0.000000 0.000000 0.000000
0.007172 0.000427 0.001099
0.007172 0.000427 0.001099
0.016754 0.001312 0.002991
0.026245 0.002380 0.005127
0.026245 0.002380 0.005127
0.000000 0.000000 0.000000
0.273712 0.100525 0.134827
0.241882 0.080719 0.111389
0.208588 0.062073 0.088562
0.208588 0.062073 0.088562
0.084503 0.012756 0.022278
0.107422 0.019135 0.031769
0.122223 0.024048 0.038757
0.135559 0.028931 0.045471
0.142914 0.031738 0.049347
0.000000 0.000000 0.000000
0.000000 0.000000 0.000000
0.000000 0.000000 0.000000
0.000000 0.000000 0.000000
0.000000 0.000000 0.000000
0.000000 0.000000 0.000000
0.000000 0.000000 0.000000
0.000000 0.000000 0.000000
0.000000 0.000000 0.000000
0.000000 0.000000 0.000000
0.010040 0.000641 0.001648
0.019592 0.001587 0.003601
0.028992 0.002716 0.005768
0.038086 0.003967 0.008026
0.038086 0.003967 0.008026
0.334045 0.143066 0.183472
0.294281 0.114258 0.150818
0.252625 0.087189 0.119110
0.247314 0.083954 0.115234
0.208588 0.062073 0.088562
0.074646 0.010498 0.018799
0.084503 0.012756 0.022278
0.107422 0.019135 0.031769
0.121338 0.023743 0.038330
0.128876 0.026428 0.042053
0.000000 0.000000 0.000000
0.000000 0.000000 0.000000
0.000000 0.000000 0.000000
0.000000 0.000000 0.000000
0.000000 0.000000 0.000000
0.000000 0.000000 0.000000
0.000000 0.000000 0.000000
0.000000 0.000000 0.000000
0.000000 0.000000 0.000000
0.000000 0.000000 0.000000
0.022430 0.001923 0.004272
0.031799 0.003082 0.006470
0.040802 0.004364 0.008759
0.049652 0.005768 0.011139
0.049652 0.005768 0.011139
0.362885 0.165680 0.208527
0.314362 0.128448 0.167023
0.299347 0.117798 0.154846
0.247314 0.083954 0.115234
0.202911 0.059113 0.084869
0.064362 0.008392 0.015472
0.074646 0.010498 0.018799
0.091553 0.014526 0.024963
0.100311 0.016968 0.028534
0.114441 0.021423 0.035004
0.000000 0.000000 0.000000
0.000000 0.000000 0.000000
0.000000 0.000000 0.000000
0.000000 0.000000 0.000000
0.000000 0.000000 0.000000
