res/luts/custom.CUBE
#Created by: Adobe Photoshop Export Color Lookup Plugin
TITLE "Custom Grading Effect"
#LUT size
LUT_3D_SIZE 32
#data domain
DOMAIN_MIN 0.0 0.0 0.0
DOMAIN_MAX 1.0 1.0 1.0
#LUT data points
0.000000 0.000000 0.000000
0.000000 0.000000 0.000000
0.000000 0.000000 0.000000
0.000000 0.000000 0.000000
0.000000 0.000000 0.000000
0.000000 0.000000 0.000000
0.000000 0.000000 0.000000
0.000000 0.000000 0.000000
0.000000 0.000000 0.000000
0.000000 0.000000 0.000000
0.000000 0.000000 0.000000
0.000000 0.000000 0.000000
0.000000 0.000000 0.000000
0.000000 0.000000 0.000000
0.000000 0.000000 0.000000
0.000000 0.000000 0.000000
0.000000 0.000000 0.000000
0.000000 0.000000 0.000000
0.000000 0.000000 0.000000
0.000000 0.000000 0.000000
0.000000 0.000000 0.000000
0.000000 0.000000 0.000000
0.000000 0.000000 0.000000
0.000000 0.000000 0.000000
0.000000 0.000000 0.000000
0.000000 0.000000 0.000000
0.000000 0.000000 0.000000
0.000000 0.000000 0.000000
0.000000 0.000000 0.000000
0.000000 0.000000 0.000000
0.000000 0.000000 0.000000
0.000000 0.000000 0.000000
0.000000 0.000000 0.000000
0.000000 0.000000 0.000000
0.000000 0.000000 0.000000
0.000000 0.000000 0.000000
0.000000 0.000000 0.000000
0.000000 0.000000 0.000000
0.000000 0.000000 0.000000
0.000000 0.000000 0.000000
0.000000 0.000000 0.000000
0.000000 0.000000 0.000000
0.000000 0.000000 0.000000
0.000000 0.000000 0.000000
0.000000 0.000000 0.000000
0.000000 0.000000 0.000000
0.000000 0.000000 0.000000
0.000000 0.000000 0.000000
0.000000 0.000000 0.000000
0.000000 0.000000 0.000000
0.000000 0.000000 0.000000
0.000000 0.000000 0.000000
0.000000 0.000000 0.000000
0.000000 0.000000 0.000000
0.000000 0.000000 0.000000
0.000000 0.000000 0.000000
0.000000 0.000000 0.000000
0.000000 0.000000 0.000000
0.000000 0.000000 0.000000
0.000000 0.000000 0.000000
0.000000 0.000000 0.000000
0.000000 0.000000 0.000000
0.000000 0.000000 0.000000
0.000000 0.000000 0.000000
0.000000 0.000000 0.000000
0.000000 0.000000 0.000000
0.000000 0.000000 0.000000
0.000000 0.000000 0.000000
0.000000 0.000000 0.000000
0.000000 0.000000 0.000000
0.000000 0.000000 0.000000
0.000000 0.000000 0.000000
0.000000 0.000000 0.000000
0.000000 0.000000 0.000000
0.000000 0.000000 0.000000
0.000000 0.000000 0.000000
0.000000 0.000000 0.000000
0.000000 0.000000 0.000000
0.000000 0.000000 0.000000
0.000000 0.000000 0.000000
0.000000 0.000000 0.000000
0.000000 0.000000 0.000000
0.000000 0.000000 0.000000
0.000000 0.000000 0.000000
0.000000 0.000000 0.000000
0.000000 0.000000 0.000000
0.000000 0.000000 0.000000
0.000000 0.000000 0.000000
0.000000 0.000000 0.000000
0.000000 0.000000 0.000000
0.000000 0.000000 0.000000
0.000000 0.000000 0.000000
0.000000 0.000000 0.000000
0.000000 0.000000 0.000000
0.000000 0.000000 0.000000
0.000000 0.000000 0.000000
0.000000 0.000000 0.000000
0.000000 0.000000 0.000000
0.000000 0.000000 0.000000
0.000000 0.000000 0.000000
0.000000 0.000000 0.000000
0.000000 0.000000 0.000000
0.000000 0.000000 0.000000
0.000000 0.000000 0.000000
0.000000 0.000000 0.000000
0.000000 0.000000 0.000000
0.000000 0.000000 0.000000
0.000000 0.000000 0.000000
0.000000 0.000000 0.000000
0.000000 0.000000 0.000000
0.000000 0.000000 0.000000
0.000000 0.000000 0.000000
0.000000 0.000000 0.000000
0.000000 0.000000 0.000000
0.000000 0.000000 0.000000
0.000000 0.000000 0.000000
0.000000 0.000000 0.000000
0.000000 0.000000 0.000000
0.000000 0.000000 0.000000
0.000000 0.000000 0.000000
0.000000 0.000000 0.000000
0.000000 0.000000 0.000000
0.000000 0.000000 0.000000
0.000000 0.000000 0.000000
0.000000 0.000000 0.000000
0.000000 0.000000 0.000000
0.000000 0.000000 0.000000
0.000000 0.000000 0.000000
0.000000 0.000000 0.000000
0.000000 0.000000 0.000000
0.000000 0.000000 0.000000
0.000000 0.000000 0.000000
0.000000 0.000000 0.000000
0.000000 0.000000 0.000000
0.000000 0.000000 0.000000
0.000000 0.000000 0.000000
0.000000 0.000000 0.000000
0.000000 0.000000 0.000000
0.000000 0.000000 0.000000
0.000000 0.000000 0.000000
0.000000 0.000000 0.000000
0.000000 0.000000 0.000000
0.000000 0.000000 0.000000
0.000000 0.000000 0.000000
0.000000 0.000000 0.000000
0.000000 0.000000 0.000000
0.000000 0.000000 0.000000
0.000000 0.000000 0.000000
0.000000 0.000000 0.000000
0.000000 0.000000 0.000000
0.000000 0.000000 0.000000
0.000000 0.000000 0.000000
0.000000 0.000000 0.000000
0.000000 0.000000 0.000000
0.000000 0.000000 0.000000
0.000000 0.000000 0.000000
0.000000 0.000000 0.000000
0.000000 0.000000 0.000000
0.000000 0.000000 0.000000
0.000000 0.000000 0.000000
0.000000 0.000000 0.000000
0.000000 0.000000 0.000000
0.000000 0.000000 0.000000
0.000000 0.000000 0.000000
0.000000 0.000000 0.000000
0.000000 0.000000 0.000000
0.000000 0.000000 0.000000
0.000000 0.000000 0.000000
0.000000 0.000000 0.000000
0.000000 0.000000 0.000000
0.000000 0.000000 0.000000
0.000000 0.000000 0.000000
0.000000 0.000000 0.000000
0.000000 0.000000 0.000000
0.000000 0.000000 0.000000
0.000000 0.000000 0.000000
0.000000 0.000000 0.000000
0.000000 0.000000 0.000000
0.000000 0.000000 0.000000
0.000000 0.000000 0.000000
0.000000 0.000000 0.000000
0.000000 0.000000 0.000000
0.000000 0.000000 0.000000
0.000000 0.000000 0.000000
0.000000 0.000000 0.000000
0.000000 0.000000 0.000000
0.000000 0.000000 0.000000
0.000000 0.000000 0.000000
0.000000 0.000000 0.000000
0.000000 0.000000 0.000000
0.000000 0.000000 0.000000
0.000000 0.000000 0.000000
0.000000 0.000000 0.000000
0.000000 0.000000 0.000000
0.000000 0.000000 0.000000
0.000000 0.000000 0.000000
0.000000 0.000000 0.000000
0.000000 0.000000 0.000000
0.000000 0.000000 0.000000
0.000000 0.000000 0.000000
0.000000 0.000000 0.000000
0.000000 0.000000 0.000000
0.000000 0.000000 0.000000
0.000000 0.000000 0.000000
0.000000 0.000000 0.000000
0.000000 0.000000 0.000000
0.000000 0.000000 0.000000
0.000000 0.000000 0.000000
0.000000 0.000000 0.000000
0.000000 0.000000 0.000000
0.000000 0.000000 0.000000
0.000000 0.000000 0.000000
0.000000 0.000000 0.000000
0.000000 0.000000 0.000000
0.000000 0.000000 0.000000
0.000000 0.000000 0.000000
0.000000 0.000000 0.000000
0.000000 0.000000 0.000000
0.000000 0.000000 0.000000
0.000000 0.000000 0.000000
0.000000 0.000000 0.000000
0.000000 0.000000 0.000000
0.000000 0.000000 0.000000
0.000000 0.000000 0.000000
0.000000 0.000000 0.000000
0.000000 0.000000 0.000000
0.000000 0.000000 0.000000
0.000000 0.000000 0.000000
0.000000 0.000000 0.000000
0.000000 0.000000 0.000000
0.000000 0.000000 0.000000
0.002747 0.000122 0.000366
0.002747 0.000122 0.000366
0.002747 0.000122 0.000366
0.002747 0.000122 0.000366
0.002747 0.000122 0.000366
0.002747 0.000122 0.000366
0.002747 0.000122 0.000366
0.002747 0.000122 0.000366
0.002747 0.000122 0.000366
0.002747 0.000122 0.000366
0.012512 0.000854 0.002136
0.012512 0.000854 0.002136
0.012512 0.000854 0.002136
0.012512 0.000854 0.002136
0.012512 0.000854 0.002136
0.012512 0.000854 0.002136
0.012512 0.000854 0.002136
0.012512 0.000854 0.002136
0.012512 0.000854 0.002136
0.012512 0.000854 0.002136
0.012512 0.000854 0.002136
0.022003 0.001862 0.004150
0.022003 0.001862 0.004150
0.022003 0.001862 0.004150
0.022003 0.001862 0.004150
0.023987 0.002075 0.004608
0.033203 0.003265 0.006805
0.033203 0.003265 0.006805
0.033203 0.003265 0.006805
0.033203 0.003265 0.006805
0.033203 0.003265 0.006805
0.033203 0.003265 0.006805
0.033203 0.003265 0.006805
0.042267 0.004578 0.009125
0.042267 0.004578 0.009125
0.042267 0.004578 0.009125
0.042267 0.004578 0.009125
0.042267 0.004578 0.009125
0.042267 0.004578 0.009125
0.042267 0.004578 0.009125
0.042267 0.004578 0.009125
0.050995 0.005981 0.011536
0.050995 0.005981 0.011536
0.050995 0.005981 0.011536
0.050995 0.005981 0.011536
0.050995 0.005981 0.011536
0.050995 0.005981 0.011536
0.050995 0.005981 0.011536
0.050995 0.005981 0.011536
0.059509 0.007507 0.014008
0.059509 0.007507 0.014008
0.059509 0.007507 0.014008
0.059509 0.007507 0.014008
0.059509 0.007507 0.014008
0.059509 0.007507 0.014008
0.059509 0.007507 0.014008
0.059509 0.007507 0.014008
0.069305 0.009399 0.017059
0.069305 0.009399 0.017059
0.069305 0.009399 0.017059
0.069305 0.009399 0.017059
0.069305 0.009399 0.017059
0.069305 0.009399 0.017059
0.077087 0.011047 0.019653
0.077087 0.011047 0.019653
0.077087 0.011047 0.019653
0.077087 0.011047 0.019653
0.077087 0.011047 0.019653
0.077087 0.011047 0.019653
0.084595 0.012787 0.022308
0.084595 0.012787 0.022308
0.084595 0.012787 0.022308
0.084595 0.012787 0.022308
0.084595 0.012787 0.022308
0.084595 0.012787 0.022308
0.084595 0.012787 0.022308
0.091675 0.014557 0.024994
0.091675 0.014557 0.024994
0.091675 0.014557 0.024994
0.091675 0.014557 0.024994
0.091675 0.014557 0.024994
0.091675 0.014557 0.024994
0.091675 0.014557 0.024994
0.098450 0.016388 0.027771
0.098450 0.016388 0.027771
0.098450 0.016388 0.027771
0.098450 0.016388 0.027771
0.098450 0.016388 0.027771
0.098450 0.016388 0.027771
0.113037 0.020935 0.034332
0.113037 0.020935 0.034332
0.113037 0.020935 0.034332
0.119019 0.022949 0.037201
0.119019 0.022949 0.037201
0.119019 0.022949 0.037201
0.119019 0.022949 0.037201
0.119019 0.022949 0.037201
0.124969 0.025024 0.040100
0.124969 0.025024 0.040100
0.124969 0.025024 0.040100
0.124969 0.025024 0.040100
0.124969 0.025024 0.040100
0.124969 0.025024 0.040100
0.130737 0.027100 0.042999
0.137329 0.029602 0.046417
0.137329 0.029602 0.046417
0.137329 0.029602 0.046417
0.137329 0.029602 0.046417
0.137329 0.029602 0.046417
0.143005 0.031769 0.049408
0.143005 0.031769 0.049408
0.143005 0.031769 0.049408
0.143005 0.031769 0.049408
0.143005 0.031769 0.049408
0.143005 0.031769 0.049408
0.148529 0.033997 0.052399
0.148529 0.033997 0.052399
0.148529 0.033997 0.052399
0.148529 0.033997 0.052399
0.148529 0.033997 0.052399
0.148529 0.033997 0.052399
0.165924 0.041382 0.062195
0.165924 0.041382 0.062195
0.165924 0.041382 0.062195
0.165924 0.041382 0.062195
0.165924 0.041382 0.062195
0.177277 0.046509 0.068878
0.177277 0.046509 0.068878
0.177277 0.046509 0.068878
0.177277 0.046509 0.068878
0.177277 0.046509 0.068878
0.183289 0.049347 0.072510
0.188416 0.051819 0.075653
0.188416 0.051819 0.075653
0.188416 0.051819 0.075653
0.188416 0.051819 0.075653
0.188416 0.051819 0.075653
0.194244 0.054688 0.079315
0.199280 0.057251 0.082550
0.199280 0.057251 0.082550
0.199280 0.057251 0.082550
0.199280 0.057251 0.082550
0.199280 0.057251 0.082550
0.204285 0.059814 0.085754
0.209991 0.062805 0.089478
0.209991 0.062805 0.089478
0.209991 0.062805 0.089478
0.209991 0.062805 0.089478
0.209991 0.062805 0.089478
0.209991 0.062805 0.089478
0.214905 0.065460 0.092743
0.214905 0.065460 0.092743
0.214905 0.065460 0.092743
0.234436 0.076355 0.106110
0.234436 0.076355 0.106110
0.239929 0.079559 0.109985
0.239929 0.079559 0.109985
0.245331 0.082764 0.113831
0.245331 0.082764 0.113831
0.255371 0.088867 0.121094
0.255371 0.088867 0.121094
0.255371 0.088867 0.121094
0.260651 0.092133 0.125000
0.260651 0.092133 0.125000
0.260651 0.092133 0.125000
0.270477 0.098419 0.132355
0.270477 0.098419 0.132355
0.270477 0.098419 0.132355
0.275665 0.101776 0.136322
0.275665 0.101776 0.136322
0.275665 0.101776 0.136322
0.280884 0.105194 0.140320
0.285339 0.108185 0.143768
0.285339 0.108185 0.143768
0.290405 0.111633 0.147766
0.290405 0.111633 0.147766
0.290405 0.111633 0.147766
0.290405 0.111633 0.147766
0.299927 0.118195 0.155304
0.299927 0.118195 0.155304
0.299927 0.118195 0.155304
0.299927 0.118195 0.155304
0.299927 0.118195 0.155304
0.299927 0.118195 0.155304
0.304962 0.121735 0.159363
0.335236 0.143982 0.184479
0.340057 0.147675 0.188599
0.344940 0.151459 0.192810
0.349731 0.155182 0.196930
0.354492 0.158997 0.201141
0.358673 0.162323 0.204803
0.363434 0.166138 0.209015
0.368164 0.170013 0.213226
0.372833 0.173828 0.217438
0.377563 0.177765 0.221710
0.377563 0.177765 0.221710
0.382202 0.181671 0.225952
0.386841 0.185608 0.230225
0.395477 0.192993 0.238220
0.395477 0.192993 0.238220
0.400085 0.197021 0.242523
0.404663 0.200989 0.246796
0.404663 0.200989 0.246796
0.409241 0.205078 0.251160
0.409241 0.205078 0.251160
0.413757 0.209106 0.255463
0.417725 0.212677 0.259247
0.422241 0.216766 0.263580
0.422241 0.216766 0.263580
0.422241 0.216766 0.263580
0.426758 0.220886 0.267944
0.426758 0.220886 0.267944
0.426758 0.220886 0.267944
0.431244 0.225037 0.272339
0.435120 0.228638 0.276123
0.435120 0.228638 0.276123
0.435120 0.228638 0.276123
0.000000 0.000000 0.000000
0.000000 0.000000 0.000000
0.000000 0.000000 0.000000
0.000000 0.000000 0.000000
0.000000 0.000000 0.000000
0.000000 0.000000 0.000000
0.000000 0.000000 0.000000
0.000000 0.000000 0.000000
0.000000 0.000000 0.000000
0.000000 0.000000 0.000000
0.000000 0.000000 0.000000
0.000000 0.000000 0.000000
0.000000 0.000000 0.000000
0.000000 0.000000 0.000000
0.000000 0.000000 0.000000
0.000000 0.000000 0.000000
0.000000 0.000000 0.000000
0.000000 0.000000 0.000000
0.000000 0.000000 0.000000
0.000000 0.000000 0.000000
0.000000 0.000000 0.000000
0.000000 0.000000 0.000000
0.000000 0.000000 0.000000
0.000000 0.000000 0.000000
0.000000 0.000000 0.000000
0.000000 0.000000 0.000000
0.000000 0.000000 0.000000
0.000000 0.000000 0.000000
0.000000 0.000000 0.000000
0.219482 0.067932 0.095825
0.219482 0.067932 0.095825
0.219482 0.067932 0.095825
0.381683 0.181213 0.225464
0.372284 0.173401 0.216949
0.367615 0.169556 0.212769
0.358124 0.161865 0.204315
0.348572 0.154297 0.195953
0.338898 0.146790 0.187622
0.329163 0.139374 0.179352
0.319366 0.132111 0.171143
0.309418 0.124908 0.162964
0.304382 0.121307 0.158905
0.334045 0.143066 0.183472
0.324249 0.135712 0.175201
0.314362 0.128448 0.167023
0.304382 0.121307 0.158905
0.299347 0.117798 0.154846
0.289215 0.110809 0.146790
0.278931 0.103912 0.138794
0.273712 0.100525 0.134827
0.263245 0.093781 0.126953
0.257996 0.090485 0.123016
0.247314 0.083954 0.115234
0.241882 0.080719 0.111389
0.230957 0.074371 0.103699
0.225464 0.071228 0.099884
0.219879 0.068146 0.096069
0.214264 0.065094 0.092316
0.202911 0.059113 0.084869
0.197113 0.056122 0.081146
0.191315 0.053253 0.077484
0.185425 0.050385 0.073822
0.179474 0.047546 0.070190
0.173462 0.044769 0.066589
0.000000 0.000000 0.000000
0.000000 0.000000 0.000000
0.000000 0.000000 0.000000
0.000000 0.000000 0.000000
0.000000 0.000000 0.000000
0.000000 0.000000 0.000000
0.000000 0.000000 0.000000
0.000000 0.000000 0.000000
0.783844 0.649261 0.686157
0.783844 0.649261 0.686157
0.783844 0.649261 0.686157
0.783844 0.649261 0.686157
0.783844 0.649261 0.686157
0.000000 0.000000 0.000000
0.000000 0.000000 0.000000
0.000000 0.000000 0.000000
0.000000 0.000000 0.000000
0.000000 0.000000 0.000000
0.000000 0.000000 0.000000
0.000000 0.000000 0.000000
0.000000 0.000000 0.000000
0.000000 0.000000 0.000000
0.000000 0.000000 0.000000
0.000000 0.000000 0.000000
0.000000 0.000000 0.000000
0.783844 0.649261 0.686157
0.783844 0.649261 0.686157
0.787018 0.653931 0.690460
0.787018 0.653931 0.690460
0.787018 0.653931 0.690460
0.787018 0.653931 0.690460
0.787018 0.653931 0.690460
0.809265 0.687073 0.720856
0.809265 0.687073 0.720856
0.809265 0.687073 0.720856
0.856232 0.759369 0.786591
0.859344 0.764282 0.791016
0.859344 0.764282 0.791016
0.859344 0.764282 0.791016
0.845062 0.741882 0.770752
0.827026 0.714081 0.745514
0.806091 0.682312 0.716492
0.806091 0.682312 0.716492
0.806091 0.682312 0.716492
0.806091 0.682312 0.716492
0.806091 0.682312 0.716492
0.806091 0.682312 0.716492
0.806091 0.682312 0.716492
0.806091 0.682312 0.716492
0.806091 0.682312 0.716492
0.806091 0.682312 0.716492
0.806091 0.682312 0.716492
0.806091 0.682312 0.716492
0.806091 0.682312 0.716492
0.806091 0.682312 0.716492
0.806091 0.682312 0.716492
0.806091 0.682312 0.716492
0.806091 0.682312 0.716492
0.806091 0.682312 0.716492
0.806091 0.682312 0.716492
0.806091 0.682312 0.716492
0.806091 0.682312 0.716492
0.806091 0.682312 0.716492
0.806091 0.682312 0.716492
0.335175 0.143921 0.184418
0.335175 0.143921 0.184418
0.330261 0.140228 0.180267
0.325378 0.136566 0.176178
0.355713 0.159912 0.202179
0.350891 0.156128 0.197968
0.346100 0.152344 0.193817
0.341248 0.148590 0.189636
0.336426 0.144867 0.185486
0.331543 0.141174 0.181366
0.326691 0.137512 0.177246
0.321716 0.133850 0.173126
0.321075 0.133362 0.172577
0.316132 0.129761 0.168488
0.311157 0.126160 0.164398
0.306152 0.122589 0.160339
0.301147 0.119049 0.156281
0.296082 0.115509 0.152222
0.290985 0.112030 0.148224
0.285889 0.108551 0.144196
0.285217 0.108124 0.143707
0.280090 0.104675 0.139679
0.274902 0.101288 0.135773
0.269684 0.097900 0.131744
0.264465 0.094543 0.127838
0.259186 0.091217 0.123901
0.253845 0.087921 0.119995
0.248505 0.084656 0.116089
0.247803 0.084259 0.115631
0.242371 0.080994 0.111694
0.242371 0.080994 0.111694
0.236969 0.077820 0.107880
0.000000 0.000000 0.000000
0.000000 0.000000 0.000000
0.000000 0.000000 0.000000
0.000000 0.000000 0.000000
0.000000 0.000000 0.000000
0.000000 0.000000 0.000000
0.000000 0.000000 0.000000
0.000000 0.000000 0.000000
0.000000 0.000000 0.000000
0.000000 0.000000 0.000000
0.000000 0.000000 0.000000
0.095306 0.015533 0.026459
0.095306 0.015533 0.026459
0.095306 0.015533 0.026459
0.095306 0.015533 0.026459
0.095306 0.015533 0.026459
0.095306 0.015533 0.026459
0.079926 0.011688 0.020630
0.079926 0.011688 0.020630
0.228149 0.072754 0.101715
0.222626 0.069641 0.097961
0.221863 0.069244 0.097412
0.221863 0.069244 0.097412
0.216248 0.066162 0.093658
0.216248 0.066162 0.093658
0.210602 0.063110 0.089874
0.204926 0.060150 0.086182
0.204926 0.060150 0.086182
0.199127 0.057159 0.082428
0.199127 0.057159 0.082428
0.198425 0.056793 0.081970
0.198425 0.056793 0.081970
0.200745 0.057983 0.083466
0.200745 0.057983 0.083466
0.206482 0.060974 0.087189
0.212128 0.063934 0.090912
0.212128 0.063934 0.090912
0.217804 0.067017 0.094696
0.217804 0.067017 0.094696
0.223358 0.070068 0.098450
0.224091 0.070465 0.098938
0.224091 0.070465 0.098938
0.229584 0.073578 0.102722
0.235107 0.076752 0.106598
0.235107 0.076752 0.106598
0.240540 0.079926 0.110382
0.240540 0.079926 0.110382
0.245972 0.083160 0.114288
0.000000 0.000000 0.000000
0.000000 0.000000 0.000000
0.000000 0.000000 0.000000
0.000000 0.000000 0.000000
0.000000 0.000000 0.000000
0.000000 0.000000 0.000000
0.000000 0.000000 0.000000
0.000000 0.000000 0.000000
0.000000 0.000000 0.000000
0.000000 0.000000 0.000000
0.000000 0.000000 0.000000
0.000000 0.000000 0.000000
0.000000 0.000000 0.000000
0.000000 0.000000 0.000000
0.000000 0.000000 0.000000
0.005493 0.000275 0.000824
0.116302 0.022034 0.035889
0.116302 0.022034 0.035889
0.123077 0.024353 0.039154
0.123077 0.024353 0.039154
0.129852 0.026794 0.042542
0.129852 0.026794 0.042542
0.136414 0.029236 0.045929
0.136414 0.029236 0.045929
0.136414 0.029236 0.045929
0.142914 0.031738 0.049347
0.142914 0.031738 0.049347
0.149323 0.034302 0.052826
0.149323 0.034302 0.052826
0.155609 0.036926 0.056305
0.150146 0.034637 0.053253
0.150146 0.034637 0.053253
0.156403 0.037231 0.056732
0.156403 0.037231 0.056732
0.162659 0.039917 0.060272
0.162659 0.039917 0.060272
0.162659 0.039917 0.060272
0.168762 0.042633 0.063843
0.168762 0.042633 0.063843
0.168762 0.042633 0.063843
0.174835 0.045380 0.067413
0.174835 0.045380 0.067413
0.174835 0.045380 0.067413
0.180847 0.048187 0.071045
0.180847 0.048187 0.071045
0.175659 0.045746 0.067902
0.181641 0.048584 0.071503
0.181641 0.048584 0.071503
0.044739 0.004974 0.009796
0.054688 0.006622 0.012573
0.054688 0.006622 0.012573
0.054688 0.006622 0.012573
0.064362 0.008392 0.015472
0.064362 0.008392 0.015472
0.064362 0.008392 0.015472
0.073486 0.010254 0.018433
0.073486 0.010254 0.018433
0.073486 0.010254 0.018433
0.074646 0.010498 0.018799
0.074646 0.010498 0.018799
0.074646 0.010498 0.018799
0.083344 0.012482 0.021851
0.083344 0.012482 0.021851
0.083344 0.012482 0.021851
0.083344 0.012482 0.021851
0.091553 0.014526 0.024963
0.091553 0.014526 0.024963
0.091553 0.014526 0.024963
0.099243 0.016632 0.028107
0.099243 0.016632 0.028107
0.099243 0.016632 0.028107
0.099243 0.016632 0.028107
0.106537 0.018860 0.031311
0.106537 0.018860 0.031311
0.100311 0.016968 0.028534
0.107422 0.019135 0.031769
0.107422 0.019135 0.031769
0.107422 0.019135 0.031769
0.107422 0.019135 0.031769
0.114441 0.021423 0.035004
0.000000 0.000000 0.000000
0.000000 0.000000 0.000000
0.000000 0.000000 0.000000
0.000000 0.000000 0.000000
0.000000 0.000000 0.000000
0.000000 0.000000 0.000000
0.008453 0.000519 0.001343
0.008453 0.000519 0.001343
0.008453 0.000519 0.001343
0.008453 0.000519 0.001343
0.019440 0.001587 0.003571
0.019440 0.001587 0.003571
0.019440 0.001587 0.003571
0.019440 0.001587 0.003571
0.020996 0.001740 0.003937
0.020996 0.001740 0.003937
0.020996 0.001740 0.003937
0.020996 0.001740 0.003937
0.020996 0.001740 0.003937
0.031647 0.003082 0.006409
0.031647 0.003082 0.006409
0.031647 0.003082 0.006409
0.031647 0.003082 0.006409
0.042145 0.004578 0.009094
0.042145 0.004578 0.009094
0.042145 0.004578 0.009094
0.042145 0.004578 0.009094
0.052155 0.006195 0.011841
0.052155 0.006195 0.011841
0.052155 0.006195 0.011841
0.043365 0.004730 0.009430
0.043365 0.004730 0.009430
0.000000 0.000000 0.000000
0.000000 0.000000 0.000000
0.000000 0.000000 0.000000
0.000000 0.000000 0.000000
0.000000 0.000000 0.000000
0.000000 0.000000 0.000000
0.000000 0.000000 0.000000
0.000000 0.000000 0.000000
0.000000 0.000000 0.000000
0.000000 0.000000 0.000000
0.000000 0.000000 0.000000
0.000000 0.000000 0.000000
0.000000 0.000000 0.000000
0.000000 0.000000 0.000000
0.000000 0.000000 0.000000
0.000000 0.000000 0.000000
0.000000 0.000000 0.000000
0.000000 0.000000 0.000000
0.000000 0.000000 0.000000
0.000000 0.000000 0.000000
0.000000 0.000000 0.000000
0.000000 0.000000 0.000000
0.000000 0.000000 0.000000
0.000000 0.000000 0.000000
0.000000 0.000000 0.000000
0.000000 0.000000 0.000000
0.000000 0.000000 0.000000
0.000000 0.000000 0.000000
0.000000 0.000000 0.000000
0.000000 0.000000 0.000000
0.000000 0.000000 0.000000
0.000000 0.000000 0.000000
0.000000 0.000000 0.000000
0.000000 0.000000 0.000000
0.000000 0.000000 0.000000
0.000000 0.000000 0.000000
0.000000 0.000000 0.000000
0.000000 0.000000 0.000000
0.000000 0.000000 0.000000
0.000000 0.000000 0.000000
0.000000 0.000000 0.000000
0.000000 0.000000 0.000000
0.000000 0.000000 0.000000
0.000000 0.000000 0.000000
0.000000 0.000000 0.000000
0.000000 0.000000 0.000000
0.000000 0.000000 0.000000
0.000000 0.000000 0.000000
0.000000 0.000000 0.000000
0.000000 0.000000 0.000000
0.000000 0.000000 0.000000
0.000000 0.000000 0.000000
0.000000 0.000000 0.000000
0.000000 0.000000 0.000000
0.000000 0.000000 0.000000
0.000000 0.000000 0.000000
0.000000 0.000000 0.000000
0.000000 0.000000 0.000000
0.000000 0.000000 0.000000
0.000000 0.000000 0.000000
0.000000 0.000000 0.000000
0.000000 0.000000 0.000000
0.000000 0.000000 0.000000
0.000000 0.000000 0.000000
0.000000 0.000000 0.000000
0.000000 0.000000 0.000000
0.000000 0.000000 0.000000
0.000000 0.000000 0.000000
0.000000 0.000000 0.000000
0.000000 0.000000 0.000000
0.000000 0.000000 0.000000
0.000000 0.000000 0.000000
0.000000 0.000000 0.000000
0.000000 0.000000 0.000000
0.000000 0.000000 0.000000
0.000000 0.000000 0.000000
0.000000 0.000000 0.000000
0.000000 0.000000 0.000000
0.000000 0.000000 0.000000
0.000000 0.000000 0.000000
0.000000 0.000000 0.000000
0.000000 0.000000 0.000000
0.000000 0.000000 0.000000
0.000000 0.000000 0.000000
0.000000 0.000000 0.000000
0.000000 0.000000 0.000000
0.000000 0.000000 0.000000
0.000000 0.000000 0.000000
0.000000 0.000000 0.000000
0.000000 0.000000 0.000000
0.000000 0.000000 0.000000
0.000000 0.000000 0.000000
0.000000 0.000000 0.000000
0.000000 0.000000 0.000000
0.000000 0.000000 0.000000
0.000000 0.000000 0.000000
0.000000 0.000000 0.000000
0.000000 0.000000 0.000000
0.000000 0.000000 0.000000
0.000000 0.000000 0.000000
0.000000 0.000000 0.000000
0.000000 0.000000 0.000000
0.000000 0.000000 0.000000
0.000000 0.000000 0.000000
0.000000 0.000000 0.000000
0.000000 0.000000 0.000000
0.000000 0.000000 0.000000
0.000000 0.000000 0.000000
0.000000 0.000000 0.000000
0.000000 0.000000 0.000000
0.000000 0.000000 0.000000
0.000000 0.000000 0.000000
0.000000 0.000000 0.000000
