res/luts/warming.CUBE
#Created by: Adobe Photoshop Export Color Lookup Plugin
TITLE "Warming color grading"
#LUT size
LUT_3D_SIZE 5
#data domain
#LUT data points
DOMAIN_MIN 0.000000 0.000000 0.000000
DOMAIN_MAX 0.903226 0.903226 0.903226
0.303009 0.244110 0.195862
0.303009 0.244110 0.195862
0.303009 0.244110 0.195862
0.303009 0.244110 0.195862
0.303009 0.244110 0.195862
0.446747 0.373596 0.303711
0.443451 0.373383 0.303314
0.443451 0.373383 0.303314
0.440369 0.372986 0.302948
0.437225 0.372711 0.302490
0.233704 0.207581 0.163727
0.227753 0.200500 0.157593
0.223022 0.196777 0.154633
0.221619 0.193298 0.152039
0.215729 0.186157 0.146118
0.308960 0.300232 0.238739
0.313690 0.310272 0.246887
0.321503 0.320709 0.255402
0.326141 0.330811 0.263184
0.329468 0.337433 0.268524
0.195221 0.157654 0.123016
0.196991 0.160889 0.125793
0.201111 0.164825 0.129059
0.201111 0.164825 0.129059
0.202240 0.168396 0.131683
0.306580 0.244202 0.196320
0.307892 0.247711 0.199036
0.307892 0.247711 0.199036
0.307892 0.247711 0.199036
0.307892 0.247711 0.199036
0.452637 0.380829 0.309692
0.452637 0.380829 0.309692
0.449371 0.380554 0.309174
0.446350 0.380157 0.308807
0.446350 0.380157 0.308807
0.238342 0.211304 0.166718
0.233704 0.207581 0.163727
0.227753 0.200500 0.157593
0.223022 0.196777 0.154633
0.217072 0.189575 0.148621
0.301514 0.289642 0.230377
0.306274 0.299683 0.238342
0.313690 0.310272 0.246887
0.316772 0.317047 0.252045
0.322876 0.324127 0.257904
0.195221 0.157654 0.123016
0.195221 0.157654 0.123016
0.196991 0.160889 0.125793
0.201111 0.164825 0.129059
0.201111 0.164825 0.129059
0.311188 0.247925 0.199371
0.311188 0.247925 0.199371
0.311188 0.247925 0.199371
0.312500 0.251404 0.202057
0.312500 0.251404 0.202057
0.457123 0.384552 0.312775
0.457123 0.384552 0.312775
0.454041 0.384216 0.312347
0.450775 0.383972 0.311920
0.450775 0.383972 0.311920
0.244141 0.218536 0.172424
0.194580 0.255890 0.196564
0.182831 0.236755 0.181641
0.171295 0.217499 0.166412
0.171295 0.217499 0.166412
0.294006 0.279053 0.221863
0.298553 0.289215 0.229889
0.306274 0.299683 0.238342
0.309387 0.306427 0.243683
0.315430 0.313568 0.249451
0.193817 0.154144 0.120483
0.195221 0.157654 0.123016
0.196991 0.160889 0.125793
0.200104 0.161194 0.126465
0.201111 0.164825 0.129059
0.312500 0.251404 0.202057
0.312500 0.251404 0.202057
0.312500 0.251404 0.202057
0.312500 0.251404 0.202057
0.312500 0.251404 0.202057
0.466248 0.392029 0.319092
0.463074 0.391724 0.318604
0.459869 0.391479 0.318207
0.456757 0.391113 0.317719
0.456757 0.391113 0.317719
0.218750 0.293854 0.226562
0.202423 0.268646 0.206665
0.186951 0.243042 0.186615
0.184601 0.240051 0.184113
0.171295 0.217499 0.166412
0.287933 0.271973 0.216003
0.294006 0.279053 0.221863
0.298553 0.289215 0.229889
0.301575 0.296021 0.235199
0.307678 0.303101 0.240875
0.190674 0.153900 0.119873
0.195221 0.157654 0.123016
0.195221 0.157654 0.123016
0.196991 0.160889 0.125793
0.200104 0.161194 0.126465
0.316895 0.255249 0.205200
0.316895 0.255249 0.205200
0.316895 0.255249 0.205200
0.316895 0.255249 0.205200
0.316895 0.255249 0.205200
0.472351 0.399139 0.324982
0.469086 0.398926 0.324432
0.465881 0.398621 0.324036
0.462646 0.398315 0.323639
0.462646 0.398315 0.323639
0.231140 0.312714 0.241486
0.210571 0.281311 0.216614
0.204834 0.271667 0.209076
0.184601 0.240051 0.184113
0.169250 0.214417 0.163879
0.281891 0.264801 0.210175
0.287933 0.271973 0.216003
0.290863 0.278778 0.221375
0.296814 0.285950 0.227203
0.299957 0.292694 0.232422
0.190674 0.153900 0.119873
0.190674 0.153900 0.119873
0.195221 0.157654 0.123016
0.195221 0.157654 0.123016
0.196991 0.160889 0.125793
