res/luts/warming.CUBE
#Created by: Adobe Photoshop Export Color Lookup Plugin
TITLE "Warming color grading"
#LUT size
LUT_3D_SIZE 8
#data domain
#LUT data points
DOMAIN_MIN 0.000000 0.000000 0.000000
DOMAIN_MAX 0.903226 0.903226 0.903226
0.303009 0.244110 0.195862
0.303009 0.244110 0.195862
0.303009 0.244110 0.195862
0.303009 0.244110 0.195862
0.303009 0.244110 0.195862
0.303009 0.244110 0.195862
0.303009 0.244110 0.195862
0.303009 0.244110 0.195862
0.373016 0.303589 0.245819
0.373016 0.303589 0.245819
0.369751 0.303345 0.245270
0.369751 0.303345 0.245270
0.369751 0.303345 0.245270
0.369751 0.303345 0.245270
0.369751 0.303345 0.245270
0.369751 0.303345 0.245270
0.476715 0.402985 0.328033
0.473602 0.402710 0.327667
0.470398 0.402374 0.327148
0.470398 0.402374 0.327148
0.467224 0.402069 0.326782
0.467224 0.402069 0.326782
0.464081 0.401794 0.326324
0.464081 0.401794 0.326324
0.555115 0.531952 0.431213
0.558105 0.538788 0.436493
0.556854 0.541687 0.438751
0.556885 0.548065 0.443512
0.558502 0.551392 0.446167
0.557068 0.554413 0.448334
0.558685 0.557709 0.450958
0.557373 0.560669 0.453125
0.050323 0.035645 0.033081
0.094635 0.067749 0.057007
0.693604 0.875092 0.697968
0.693604 0.875092 0.697968
0.113983 0.090302 0.071747
0.106720 0.082428 0.070648
0.072266 0.052795 0.044830
0.691437 0.874359 0.697235
0.347687 0.358826 0.285828
0.351135 0.365356 0.291107
0.358734 0.375916 0.299530
0.362183 0.382477 0.304871
0.141693 0.141876 0.107452
0.144531 0.142334 0.108032
0.144531 0.142334 0.108032
0.144531 0.142334 0.108032
0.239716 0.208405 0.164459
0.241180 0.211792 0.167084
0.242676 0.215179 0.169769
0.246033 0.215393 0.170319
0.247498 0.218781 0.172974
0.248810 0.222260 0.175568
0.250122 0.225769 0.178314
0.253113 0.226135 0.178711
0.195221 0.157654 0.123016
0.196991 0.160889 0.125793
0.200104 0.161194 0.126465
0.200104 0.161194 0.126465
0.201111 0.164825 0.129059
0.201111 0.164825 0.129059
0.202240 0.168396 0.131683
0.202240 0.168396 0.131683
0.306580 0.244202 0.196320
0.306580 0.244202 0.196320
0.306580 0.244202 0.196320
0.306580 0.244202 0.196320
0.306580 0.244202 0.196320
0.307892 0.247711 0.199036
0.307892 0.247711 0.199036
0.307892 0.247711 0.199036
0.373016 0.303589 0.245819
0.373016 0.303589 0.245819
0.374207 0.307098 0.248535
0.374207 0.307098 0.248535
0.374207 0.307098 0.248535
0.374207 0.307098 0.248535
0.371155 0.306732 0.247986
0.371155 0.306732 0.247986
0.478088 0.406464 0.330811
0.478088 0.406464 0.330811
0.474945 0.406128 0.330292
0.474945 0.406128 0.330292
0.471741 0.405792 0.329865
0.471741 0.405792 0.329865
0.468597 0.405518 0.329498
0.468597 0.405518 0.329498
0.558105 0.538788 0.436493
0.561188 0.545532 0.441895
0.559937 0.548462 0.444031
0.560028 0.554779 0.448853
0.561676 0.558105 0.451477
0.561859 0.564453 0.456238
0.560455 0.567413 0.458405
0.562164 0.570679 0.460968
0.094635 0.067749 0.057007
0.151062 0.119965 0.096832
0.691437 0.874359 0.697235
0.691437 0.874359 0.697235
0.691437 0.874359 0.697235
0.691437 0.874359 0.697235
0.691437 0.874359 0.697235
0.689331 0.873596 0.696442
0.339874 0.348419 0.277496
0.347687 0.358826 0.285828
0.351135 0.365356 0.291107
0.354370 0.372070 0.296448
0.357697 0.378693 0.301575
0.139709 0.138733 0.104919
0.143066 0.138916 0.105438
0.143066 0.138916 0.105438
0.238556 0.204834 0.161774
0.239716 0.208405 0.164459
0.241180 0.211792 0.167084
0.242676 0.215179 0.169769
0.246033 0.215393 0.170319
0.247498 0.218781 0.172974
0.248810 0.222260 0.175568
0.250122 0.225769 0.178314
0.195221 0.157654 0.123016
0.195221 0.157654 0.123016
0.196991 0.160889 0.125793
0.200104 0.161194 0.126465
0.201111 0.164825 0.129059
0.201111 0.164825 0.129059
0.201111 0.164825 0.129059
0.202240 0.168396 0.131683
0.307892 0.247711 0.199036
0.307892 0.247711 0.199036
0.307892 0.247711 0.199036
0.307892 0.247711 0.199036
0.307892 0.247711 0.199036
0.307892 0.247711 0.199036
0.307892 0.247711 0.199036
0.307892 0.247711 0.199036
0.377472 0.307373 0.248840
0.377472 0.307373 0.248840
0.374207 0.307098 0.248535
0.374207 0.307098 0.248535
0.374207 0.307098 0.248535
0.374207 0.307098 0.248535
0.374207 0.307098 0.248535
0.375641 0.310516 0.251129
0.482727 0.410187 0.333954
0.479584 0.409821 0.333496
0.479584 0.409821 0.333496
0.476318 0.409546 0.333099
0.476318 0.409546 0.333099
0.473175 0.409241 0.332703
0.473175 0.409241 0.332703
0.470032 0.408966 0.332153
0.561188 0.545532 0.441895
0.561462 0.551758 0.446655
0.564545 0.558533 0.451965
0.563141 0.561523 0.454132
0.563416 0.567810 0.458923
0.565063 0.571136 0.461548
0.563812 0.574036 0.463715
0.565430 0.577332 0.466278
0.085510 0.060516 0.053497
0.689331 0.873596 0.696442
0.689331 0.873596 0.696442
0.689331 0.873596 0.696442
0.689331 0.873596 0.696442
0.689331 0.873596 0.696442
0.689331 0.873596 0.696442
0.689331 0.873596 0.696442
0.336792 0.341644 0.272125
0.339874 0.348419 0.277496
0.343231 0.355011 0.282715
0.351135 0.365356 0.291107
0.354370 0.372070 0.296448
0.357697 0.378693 0.301575
0.138306 0.135284 0.102203
0.141113 0.135712 0.102844
0.235382 0.204468 0.161377
0.238556 0.204834 0.161774
0.239716 0.208405 0.164459
0.241180 0.211792 0.167084
0.242676 0.215179 0.169769
0.242676 0.215179 0.169769
0.247498 0.218781 0.172974
0.248810 0.222260 0.175568
0.195221 0.157654 0.123016
0.195221 0.157654 0.123016
0.196991 0.160889 0.125793
0.196991 0.160889 0.125793
0.200104 0.161194 0.126465
0.201111 0.164825 0.129059
0.201111 0.164825 0.129059
0.201111 0.164825 0.129059
0.307892 0.247711 0.199036
0.307892 0.247711 0.199036
0.307892 0.247711 0.199036
0.307892 0.247711 0.199036
0.307892 0.247711 0.199036
0.307892 0.247711 0.199036
0.307892 0.247711 0.199036
0.309204 0.251190 0.201721
0.379028 0.310699 0.251648
0.379028 0.310699 0.251648
0.379028 0.310699 0.251648
0.379028 0.310699 0.251648
0.379028 0.310699 0.251648
0.379028 0.310699 0.251648
0.379028 0.310699 0.251648
0.375641 0.310516 0.251129
0.484100 0.413605 0.336609
0.484100 0.413605 0.336609
0.480804 0.413300 0.336151
0.480804 0.413300 0.336151
0.477570 0.413055 0.335785
0.477570 0.413055 0.335785
0.474457 0.412750 0.335297
0.474457 0.412750 0.335297
0.559937 0.548462 0.444031
0.564545 0.558533 0.451965
0.564728 0.564880 0.456757
0.567963 0.571503 0.462036
0.566772 0.574432 0.464172
0.566956 0.580780 0.468964
0.568604 0.584045 0.471588
0.567383 0.586975 0.473694
0.085663 0.064331 0.053375
0.687195 0.872864 0.695648
0.687195 0.872864 0.695648
0.687195 0.872864 0.695648
0.687195 0.872864 0.695648
0.687195 0.872864 0.695648
0.687195 0.872864 0.695648
0.687195 0.872864 0.695648
0.330688 0.334534 0.266449
0.336792 0.341644 0.272125
0.339874 0.348419 0.277496
0.343231 0.355011 0.282715
0.346527 0.361694 0.287964
0.352692 0.368744 0.293762
0.356079 0.375336 0.299011
0.136902 0.131836 0.099609
0.234039 0.201080 0.158600
0.235382 0.204468 0.161377
0.236877 0.207947 0.164093
0.239716 0.208405 0.164459
0.241180 0.211792 0.167084
0.242676 0.215179 0.169769
0.242676 0.215179 0.169769
0.247498 0.218781 0.172974
0.195221 0.157654 0.123016
0.195221 0.157654 0.123016
0.195221 0.157654 0.123016
0.196991 0.160889 0.125793
0.196991 0.160889 0.125793
0.200104 0.161194 0.126465
0.201111 0.164825 0.129059
0.201111 0.164825 0.129059
0.311188 0.247925 0.199371
0.311188 0.247925 0.199371
0.311188 0.247925 0.199371
0.312500 0.251404 0.202057
0.312500 0.251404 0.202057
0.312500 0.251404 0.202057
0.312500 0.251404 0.202057
0.312500 0.251404 0.202057
0.382263 0.311005 0.251984
0.383484 0.314514 0.254730
0.383484 0.314514 0.254730
0.380249 0.314209 0.254395
0.380249 0.314209 0.254395
0.380249 0.314209 0.254395
0.380249 0.314209 0.254395
0.380249 0.314209 0.254395
0.488708 0.417297 0.339813
0.485504 0.417023 0.339294
0.485504 0.417023 0.339294
0.482300 0.416779 0.338898
0.482300 0.416779 0.338898
0.479004 0.416473 0.338470
0.479004 0.416473 0.338470
0.475922 0.416199 0.338013
0.564545 0.558533 0.451965
0.564728 0.564880 0.456757
0.567963 0.571503 0.462036
0.568329 0.577789 0.466858
0.571472 0.584503 0.472137
0.571899 0.590698 0.476868
0.573456 0.594086 0.479431
0.572418 0.596924 0.481598
0.685028 0.872101 0.694824
0.685028 0.872101 0.694824
0.685028 0.872101 0.694824
0.685028 0.872101 0.694824
0.687195 0.872864 0.695648
0.687195 0.872864 0.695648
0.687195 0.872864 0.695648
0.685028 0.872101 0.694824
0.326050 0.324432 0.258453
0.330688 0.334534 0.266449
0.334076 0.341156 0.271698
0.339874 0.348419 0.277496
0.341766 0.351593 0.280060
0.345032 0.358276 0.285370
0.348175 0.364990 0.290619
0.135651 0.128326 0.096741
0.234039 0.201080 0.158600
0.234039 0.201080 0.158600
0.235382 0.204468 0.161377
0.236877 0.207947 0.164093
0.239716 0.208405 0.164459
0.241180 0.211792 0.167084
0.242676 0.215179 0.169769
0.242676 0.215179 0.169769
0.190674 0.153900 0.119873
0.195221 0.157654 0.123016
0.195221 0.157654 0.123016
0.195221 0.157654 0.123016
0.196991 0.160889 0.125793
0.196991 0.160889 0.125793
0.200104 0.161194 0.126465
0.201111 0.164825 0.129059
0.312500 0.251404 0.202057
0.312500 0.251404 0.202057
0.312500 0.251404 0.202057
0.312500 0.251404 0.202057
0.312500 0.251404 0.202057
0.312500 0.251404 0.202057
0.312500 0.251404 0.202057
0.312500 0.251404 0.202057
0.386688 0.314789 0.255096
0.383484 0.314514 0.254730
0.383484 0.314514 0.254730
0.383484 0.314514 0.254730
0.383484 0.314514 0.254730
0.383484 0.314514 0.254730
0.384766 0.317993 0.257507
0.381592 0.317719 0.256958
0.493195 0.421082 0.342957
0.490021 0.420776 0.342438
0.486816 0.420502 0.342041
0.486816 0.420502 0.342041
0.483704 0.420166 0.341583
0.483704 0.420166 0.341583
0.480469 0.419922 0.341187
0.480469 0.419922 0.341187
0.567688 0.565277 0.457245
0.567963 0.571503 0.462036
0.569885 0.581177 0.469482
0.573151 0.587830 0.474762
0.573456 0.594086 0.479431
0.576874 0.600677 0.484711
0.575653 0.603577 0.486816
0.577362 0.606903 0.489441
0.683014 0.871307 0.694031
0.683014 0.871307 0.694031
0.685028 0.872101 0.694824
0.685028 0.872101 0.694824
0.685028 0.872101 0.694824
0.685028 0.872101 0.694824
0.683014 0.871307 0.694031
0.683014 0.871307 0.694031
0.319916 0.317291 0.252594
0.322876 0.324127 0.257904
0.329071 0.331207 0.263641
0.332184 0.337921 0.269043
0.335602 0.344513 0.274261
0.341766 0.351593 0.280060
0.343231 0.355011 0.282715
0.346527 0.361694 0.287964
0.229462 0.197327 0.155426
0.234039 0.201080 0.158600
0.234039 0.201080 0.158600
0.235382 0.204468 0.161377
0.236877 0.207947 0.164093
0.239716 0.208405 0.164459
0.241180 0.211792 0.167084
0.242676 0.215179 0.169769
0.190674 0.153900 0.119873
0.190674 0.153900 0.119873
0.195221 0.157654 0.123016
0.195221 0.157654 0.123016
0.195221 0.157654 0.123016
0.196991 0.160889 0.125793
0.196991 0.160889 0.125793
0.200104 0.161194 0.126465
0.315552 0.251770 0.202576
0.315552 0.251770 0.202576
0.312500 0.251404 0.202057
0.312500 0.251404 0.202057
0.312500 0.251404 0.202057
0.313629 0.255005 0.204834
0.313629 0.255005 0.204834
0.313629 0.255005 0.204834
0.387939 0.318298 0.257874
0.387939 0.318298 0.257874
0.387939 0.318298 0.257874
0.387939 0.318298 0.257874
0.384766 0.317993 0.257507
0.384766 0.317993 0.257507
0.384766 0.317993 0.257507
0.384766 0.317993 0.257507
0.494537 0.424561 0.345551
0.494537 0.424561 0.345551
0.491364 0.424286 0.345215
0.488281 0.423920 0.344696
0.488281 0.423920 0.344696
0.485168 0.423584 0.344330
0.485168 0.423584 0.344330
0.481842 0.423370 0.343750
0.567963 0.571503 0.462036
0.572754 0.581635 0.470032
0.574738 0.591156 0.477386
0.575226 0.597351 0.482056
0.578461 0.604034 0.487335
0.578949 0.610199 0.492035
0.582336 0.616821 0.497314
0.581238 0.619690 0.499359
0.593628 0.819031 0.643951
0.683014 0.871307 0.694031
0.683014 0.871307 0.694031
0.683014 0.871307 0.694031
0.683014 0.871307 0.694031
0.683014 0.871307 0.694031
0.680847 0.870514 0.693207
0.680847 0.870514 0.693207
0.318268 0.314026 0.249908
0.319916 0.317291 0.252594
0.322876 0.324127 0.257904
0.326141 0.330811 0.263184
0.332184 0.337921 0.269043
0.335602 0.344513 0.274261
0.337036 0.347992 0.276886
0.341766 0.351593 0.280060
0.228088 0.193878 0.152832
0.229462 0.197327 0.155426
0.234039 0.201080 0.158600
0.234039 0.201080 0.158600
0.235382 0.204468 0.161377
0.236877 0.207947 0.164093
0.236877 0.207947 0.164093
0.241180 0.211792 0.167084
0.190674 0.153900 0.119873
0.190674 0.153900 0.119873
0.190674 0.153900 0.119873
0.195221 0.157654 0.123016
0.195221 0.157654 0.123016
0.195221 0.157654 0.123016
0.196991 0.160889 0.125793
0.196991 0.160889 0.125793
0.316895 0.255249 0.205200
0.316895 0.255249 0.205200
0.316895 0.255249 0.205200
0.316895 0.255249 0.205200
0.316895 0.255249 0.205200
0.316895 0.255249 0.205200
0.316895 0.255249 0.205200
0.316895 0.255249 0.205200
0.392578 0.322021 0.261017
0.392578 0.322021 0.261017
0.389435 0.321716 0.260620
0.389435 0.321716 0.260620
0.389435 0.321716 0.260620
0.389435 0.321716 0.260620
0.389435 0.321716 0.260620
0.389435 0.321716 0.260620
0.498993 0.428314 0.348755
0.495972 0.427948 0.348297
0.495972 0.427948 0.348297
0.492767 0.427643 0.347900
0.489594 0.427368 0.347412
0.489594 0.427368 0.347412
0.486359 0.427094 0.346985
0.486359 0.427094 0.346985
0.571167 0.578217 0.467316
0.574738 0.591156 0.477386
0.579712 0.601166 0.485291
0.580139 0.607330 0.489990
0.582336 0.616821 0.497314
0.585693 0.623444 0.502502
0.584564 0.626343 0.504578
0.587982 0.632904 0.509796
0.614258 0.840393 0.662109
0.574585 0.783234 0.616943
0.680847 0.870514 0.693207
0.680847 0.870514 0.693207
0.680847 0.870514 0.693207
0.680847 0.870514 0.693207
0.680847 0.870514 0.693207
0.680847 0.870514 0.693207
0.312225 0.306885 0.244171
0.315430 0.313568 0.249451
0.319916 0.317291 0.252594
0.322876 0.324127 0.257904
0.326141 0.330811 0.263184
0.327759 0.334106 0.265839
0.334076 0.341156 0.271698
0.335602 0.344513 0.274261
0.228088 0.193878 0.152832
0.229462 0.197327 0.155426
0.229462 0.197327 0.155426
0.234039 0.201080 0.158600
0.234039 0.201080 0.158600
0.235382 0.204468 0.161377
0.236877 0.207947 0.164093
0.236877 0.207947 0.164093
0.190674 0.153900 0.119873
0.190674 0.153900 0.119873
0.190674 0.153900 0.119873
0.191986 0.157379 0.122681
0.195221 0.157654 0.123016
0.195221 0.157654 0.123016
0.196991 0.160889 0.125793
0.196991 0.160889 0.125793
