res/luts/warming.CUBE
#Created by: Adobe Photoshop Export Color Lookup Plugin
TITLE "Warming color grading"
#LUT size
LUT_3D_SIZE 32
#data domain
DOMAIN_MIN 0.0 0.0 0.0
DOMAIN_MAX 1.0 1.0 1.0
#LUT data points
0.303009 0.244110 0.195862
0.303009 0.244110 0.195862
0.303009 0.244110 0.195862
0.303009 0.244110 0.195862
0.303009 0.244110 0.195862
0.303009 0.244110 0.195862
0.303009 0.244110 0.195862
0.303009 0.244110 0.195862
0.303009 0.244110 0.195862
0.303009 0.244110 0.195862
0.303009 0.244110 0.195862
0.303009 0.244110 0.195862
0.303009 0.244110 0.195862
0.303009 0.244110 0.195862
0.303009 0.244110 0.195862
0.303009 0.244110 0.195862
0.303009 0.244110 0.195862
0.303009 0.244110 0.195862
0.303009 0.244110 0.195862
0.303009 0.244110 0.195862
0.303009 0.244110 0.195862
0.303009 0.244110 0.195862
0.303009 0.244110 0.195862
0.303009 0.244110 0.195862
0.303009 0.244110 0.195862
0.303009 0.244110 0.195862
0.303009 0.244110 0.195862
0.303009 0.244110 0.195862
0.303009 0.244110 0.195862
0.303009 0.244110 0.195862
0.303009 0.244110 0.195862
0.303009 0.244110 0.195862
0.316895 0.255249 0.205200
0.316895 0.255249 0.205200
0.316895 0.255249 0.205200
0.316895 0.255249 0.205200
0.316895 0.255249 0.205200
0.316895 0.255249 0.205200
0.316895 0.255249 0.205200
0.316895 0.255249 0.205200
0.316895 0.255249 0.205200
0.316895 0.255249 0.205200
0.316895 0.255249 0.205200
0.316895 0.255249 0.205200
0.316895 0.255249 0.205200
0.316895 0.255249 0.205200
0.316895 0.255249 0.205200
0.316895 0.255249 0.205200
0.316895 0.255249 0.205200
0.316895 0.255249 0.205200
0.316895 0.255249 0.205200
0.316895 0.255249 0.205200
0.316895 0.255249 0.205200
0.316895 0.255249 0.205200
0.316895 0.255249 0.205200
0.316895 0.255249 0.205200
0.316895 0.255249 0.205200
0.316895 0.255249 0.205200
0.318268 0.258698 0.207947
0.318268 0.258698 0.207947
0.318268 0.258698 0.207947
0.318268 0.258698 0.207947
0.318268 0.258698 0.207947
0.318268 0.258698 0.207947
0.335205 0.270203 0.217865
0.335205 0.270203 0.217865
0.335205 0.270203 0.217865
0.335205 0.270203 0.217865
0.335205 0.270203 0.217865
0.335205 0.270203 0.217865
0.335205 0.270203 0.217865
0.335205 0.270203 0.217865
0.332031 0.269836 0.217529
0.332031 0.269836 0.217529
0.332031 0.269836 0.217529
0.332031 0.269836 0.217529
0.332031 0.269836 0.217529
0.332031 0.269836 0.217529
0.332031 0.269836 0.217529
0.332031 0.269836 0.217529
0.332031 0.269836 0.217529
0.332031 0.269836 0.217529
0.332031 0.269836 0.217529
0.332031 0.269836 0.217529
0.332031 0.269836 0.217529
0.332031 0.269836 0.217529
0.332031 0.269836 0.217529
0.332031 0.269836 0.217529
0.332031 0.269836 0.217529
0.332031 0.269836 0.217529
0.332031 0.269836 0.217529
0.332031 0.269836 0.217529
0.332031 0.269836 0.217529
0.332031 0.269836 0.217529
0.332031 0.269836 0.217529
0.332031 0.269836 0.217529
0.350220 0.284851 0.230042
0.350220 0.284851 0.230042
0.350220 0.284851 0.230042
0.350220 0.284851 0.230042
0.350220 0.284851 0.230042
0.350220 0.284851 0.230042
0.350220 0.284851 0.230042
0.350220 0.284851 0.230042
0.350220 0.284851 0.230042
0.350220 0.284851 0.230042
0.350220 0.284851 0.230042
0.350220 0.284851 0.230042
0.350220 0.284851 0.230042
0.350220 0.284851 0.230042
0.350220 0.284851 0.230042
0.350220 0.284851 0.230042
0.350220 0.284851 0.230042
0.350220 0.284851 0.230042
0.350220 0.284851 0.230042
0.350220 0.284851 0.230042
0.350220 0.284851 0.230042
0.350220 0.284851 0.230042
0.350220 0.284851 0.230042
0.350220 0.284851 0.230042
0.350220 0.284851 0.230042
0.350220 0.284851 0.230042
0.350220 0.284851 0.230042
0.350220 0.284851 0.230042
0.350220 0.284851 0.230042
0.350220 0.284851 0.230042
0.351532 0.288330 0.232666
0.351532 0.288330 0.232666
0.373016 0.303589 0.245819
0.373016 0.303589 0.245819
0.373016 0.303589 0.245819
0.373016 0.303589 0.245819
0.373016 0.303589 0.245819
0.369751 0.303345 0.245270
0.369751 0.303345 0.245270
0.369751 0.303345 0.245270
0.369751 0.303345 0.245270
0.369751 0.303345 0.245270
0.369751 0.303345 0.245270
0.369751 0.303345 0.245270
0.369751 0.303345 0.245270
0.369751 0.303345 0.245270
0.369751 0.303345 0.245270
0.369751 0.303345 0.245270
0.369751 0.303345 0.245270
0.369751 0.303345 0.245270
0.369751 0.303345 0.245270
0.369751 0.303345 0.245270
0.369751 0.303345 0.245270
0.369751 0.303345 0.245270
0.369751 0.303345 0.245270
0.369751 0.303345 0.245270
0.369751 0.303345 0.245270
0.369751 0.303345 0.245270
0.369751 0.303345 0.245270
0.369751 0.303345 0.245270
0.369751 0.303345 0.245270
0.369751 0.303345 0.245270
0.369751 0.303345 0.245270
0.369751 0.303345 0.245270
0.392578 0.322021 0.261017
0.392578 0.322021 0.261017
0.392578 0.322021 0.261017
0.392578 0.322021 0.261017
0.392578 0.322021 0.261017
0.392578 0.322021 0.261017
0.392578 0.322021 0.261017
0.392578 0.322021 0.261017
0.392578 0.322021 0.261017
0.392578 0.322021 0.261017
0.392578 0.322021 0.261017
0.392578 0.322021 0.261017
0.393860 0.325500 0.263641
0.393860 0.325500 0.263641
0.393860 0.325500 0.263641
0.393860 0.325500 0.263641
0.393860 0.325500 0.263641
0.393860 0.325500 0.263641
0.393860 0.325500 0.263641
0.390717 0.325165 0.263367
0.390717 0.325165 0.263367
0.390717 0.325165 0.263367
0.390717 0.325165 0.263367
0.390717 0.325165 0.263367
0.390717 0.325165 0.263367
0.390717 0.325165 0.263367
0.390717 0.325165 0.263367
0.390717 0.325165 0.263367
0.390717 0.325165 0.263367
0.390717 0.325165 0.263367
0.390717 0.325165 0.263367
0.390717 0.325165 0.263367
0.421143 0.347961 0.282715
0.421143 0.347961 0.282715
0.418030 0.347687 0.282166
0.418030 0.347687 0.282166
0.418030 0.347687 0.282166
0.418030 0.347687 0.282166
0.418030 0.347687 0.282166
0.418030 0.347687 0.282166
0.418030 0.347687 0.282166
0.418030 0.347687 0.282166
0.418030 0.347687 0.282166
0.418030 0.347687 0.282166
0.418030 0.347687 0.282166
0.418030 0.347687 0.282166
0.418030 0.347687 0.282166
0.418030 0.347687 0.282166
0.414856 0.347351 0.281830
0.414856 0.347351 0.281830
0.414856 0.347351 0.281830
0.414856 0.347351 0.281830
0.414856 0.347351 0.281830
0.414856 0.347351 0.281830
0.414856 0.347351 0.281830
0.414856 0.347351 0.281830
0.414856 0.347351 0.281830
0.414856 0.347351 0.281830
0.414856 0.347351 0.281830
0.414856 0.347351 0.281830
0.414856 0.347351 0.281830
0.414856 0.347351 0.281830
0.414856 0.347351 0.281830
0.414856 0.347351 0.281830
0.446747 0.373596 0.303711
0.446747 0.373596 0.303711
0.446747 0.373596 0.303711
0.446747 0.373596 0.303711
0.446747 0.373596 0.303711
0.446747 0.373596 0.303711
0.446747 0.373596 0.303711
0.443451 0.373383 0.303314
0.443451 0.373383 0.303314
0.443451 0.373383 0.303314
0.443451 0.373383 0.303314
0.443451 0.373383 0.303314
0.443451 0.373383 0.303314
0.443451 0.373383 0.303314
0.443451 0.373383 0.303314
0.443451 0.373383 0.303314
0.443451 0.373383 0.303314
0.440369 0.372986 0.302948
0.440369 0.372986 0.302948
0.440369 0.372986 0.302948
0.440369 0.372986 0.302948
0.440369 0.372986 0.302948
0.440369 0.372986 0.302948
0.440369 0.372986 0.302948
0.440369 0.372986 0.302948
0.440369 0.372986 0.302948
0.440369 0.372986 0.302948
0.440369 0.372986 0.302948
0.437225 0.372711 0.302490
0.437225 0.372711 0.302490
0.437225 0.372711 0.302490
0.437225 0.372711 0.302490
0.476715 0.402985 0.328033
0.473602 0.402710 0.327667
0.473602 0.402710 0.327667
0.473602 0.402710 0.327667
0.473602 0.402710 0.327667
0.473602 0.402710 0.327667
0.473602 0.402710 0.327667
0.473602 0.402710 0.327667
0.470398 0.402374 0.327148
0.470398 0.402374 0.327148
0.470398 0.402374 0.327148
0.470398 0.402374 0.327148
0.470398 0.402374 0.327148
0.470398 0.402374 0.327148
0.470398 0.402374 0.327148
0.470398 0.402374 0.327148
0.467224 0.402069 0.326782
0.467224 0.402069 0.326782
0.467224 0.402069 0.326782
0.467224 0.402069 0.326782
0.467224 0.402069 0.326782
0.467224 0.402069 0.326782
0.467224 0.402069 0.326782
0.467224 0.402069 0.326782
0.464081 0.401794 0.326324
0.464081 0.401794 0.326324
0.464081 0.401794 0.326324
0.464081 0.401794 0.326324
0.464081 0.401794 0.326324
0.464081 0.401794 0.326324
0.464081 0.401794 0.326324
0.464081 0.401794 0.326324
0.500397 0.431824 0.351471
0.500397 0.431824 0.351471
0.500397 0.431824 0.351471
0.500397 0.431824 0.351471
0.500397 0.431824 0.351471
0.500397 0.431824 0.351471
0.497314 0.431427 0.351044
0.497314 0.431427 0.351044
0.497314 0.431427 0.351044
0.497314 0.431427 0.351044
0.497314 0.431427 0.351044
0.497314 0.431427 0.351044
0.494171 0.431152 0.350555
0.494171 0.431152 0.350555
0.494171 0.431152 0.350555
0.494171 0.431152 0.350555
0.494171 0.431152 0.350555
0.494171 0.431152 0.350555
0.494171 0.431152 0.350555
0.491089 0.430786 0.350159
0.491089 0.430786 0.350159
0.491089 0.430786 0.350159
0.491089 0.430786 0.350159
0.491089 0.430786 0.350159
0.491089 0.430786 0.350159
0.491089 0.430786 0.350159
0.487915 0.430511 0.349670
0.487915 0.430511 0.349670
0.487915 0.430511 0.349670
0.487915 0.430511 0.349670
0.487915 0.430511 0.349670
0.487915 0.430511 0.349670
0.525635 0.463898 0.377502
0.525635 0.463898 0.377502
0.525635 0.463898 0.377502
0.522705 0.463501 0.377136
0.522705 0.463501 0.377136
0.522705 0.463501 0.377136
0.522705 0.463501 0.377136
0.522705 0.463501 0.377136
0.519409 0.463257 0.376678
0.519409 0.463257 0.376678
0.519409 0.463257 0.376678
0.519409 0.463257 0.376678
0.519409 0.463257 0.376678
0.519409 0.463257 0.376678
0.516357 0.462921 0.376251
0.517792 0.466370 0.378937
0.517792 0.466370 0.378937
0.517792 0.466370 0.378937
0.517792 0.466370 0.378937
0.517792 0.466370 0.378937
0.514679 0.466003 0.378510
0.514679 0.466003 0.378510
0.514679 0.466003 0.378510
0.514679 0.466003 0.378510
0.514679 0.466003 0.378510
0.514679 0.466003 0.378510
0.511597 0.465668 0.378021
0.511597 0.465668 0.378021
0.511597 0.465668 0.378021
0.511597 0.465668 0.378021
0.511597 0.465668 0.378021
0.511597 0.465668 0.378021
0.541748 0.495026 0.402252
0.541748 0.495026 0.402252
0.541748 0.495026 0.402252
0.541748 0.495026 0.402252
0.541748 0.495026 0.402252
0.540100 0.498108 0.404510
0.540100 0.498108 0.404510
0.540100 0.498108 0.404510
0.540100 0.498108 0.404510
0.540100 0.498108 0.404510
0.541565 0.501526 0.407104
0.538574 0.501129 0.406708
0.538574 0.501129 0.406708
0.538574 0.501129 0.406708
0.538574 0.501129 0.406708
0.538574 0.501129 0.406708
0.540131 0.504456 0.409363
0.537018 0.504089 0.408875
0.537018 0.504089 0.408875
0.537018 0.504089 0.408875
0.537018 0.504089 0.408875
0.537018 0.504089 0.408875
0.533936 0.503784 0.408386
0.535461 0.507202 0.411072
0.535461 0.507202 0.411072
0.535461 0.507202 0.411072
0.535461 0.507202 0.411072
0.535461 0.507202 0.411072
0.535461 0.507202 0.411072
0.532471 0.506836 0.410583
0.532471 0.506836 0.410583
0.532471 0.506836 0.410583
0.555115 0.531952 0.431213
0.555115 0.531952 0.431213
0.556671 0.535339 0.433868
0.556671 0.535339 0.433868
0.558105 0.538788 0.436493
0.558105 0.538788 0.436493
0.556854 0.541687 0.438751
0.556854 0.541687 0.438751
0.556854 0.541687 0.438751
0.558319 0.545105 0.441345
0.558319 0.545105 0.441345
0.558319 0.545105 0.441345
0.556885 0.548065 0.443512
0.556885 0.548065 0.443512
0.556885 0.548065 0.443512
0.558502 0.551392 0.446167
0.558502 0.551392 0.446167
0.558502 0.551392 0.446167
0.560028 0.554779 0.448853
0.557068 0.554413 0.448334
0.557068 0.554413 0.448334
0.558685 0.557709 0.450958
0.558685 0.557709 0.450958
0.558685 0.557709 0.450958
0.558685 0.557709 0.450958
0.557373 0.560669 0.453125
0.557373 0.560669 0.453125
0.557373 0.560669 0.453125
0.557373 0.560669 0.453125
0.557373 0.560669 0.453125
0.557373 0.560669 0.453125
0.558838 0.564026 0.455719
0.573151 0.587830 0.474762
0.574738 0.591156 0.477386
0.576385 0.594513 0.480042
0.578033 0.597839 0.482635
0.579712 0.601166 0.485291
0.576874 0.600677 0.484711
0.578461 0.604034 0.487335
0.580139 0.607330 0.489990
0.581848 0.610626 0.492584
0.583496 0.613983 0.495239
0.583496 0.613983 0.495239
0.585144 0.617310 0.497833
0.586700 0.620667 0.500519
0.585693 0.623444 0.502502
0.585693 0.623444 0.502502
0.587402 0.626770 0.505096
0.589020 0.630096 0.507782
0.589020 0.630096 0.507782
0.590729 0.633392 0.510376
0.590729 0.633392 0.510376
0.592438 0.636658 0.513000
0.589722 0.636169 0.512390
0.591400 0.639496 0.515045
0.591400 0.639496 0.515045
0.591400 0.639496 0.515045
0.593079 0.642792 0.517548
0.593079 0.642792 0.517548
0.593079 0.642792 0.517548
0.594788 0.646118 0.520233
0.592102 0.645569 0.519623
0.592102 0.645569 0.519623
0.592102 0.645569 0.519623
0.233704 0.207581 0.163727
0.233704 0.207581 0.163727
0.232330 0.204193 0.160675
0.232330 0.204193 0.160675
0.232330 0.204193 0.160675
0.232330 0.204193 0.160675
0.232330 0.204193 0.160675
0.227753 0.200500 0.157593
0.227753 0.200500 0.157593
0.227753 0.200500 0.157593
0.227753 0.200500 0.157593
0.227753 0.200500 0.157593
0.226562 0.196869 0.155060
0.226562 0.196869 0.155060
0.223022 0.196777 0.154633
0.223022 0.196777 0.154633
0.223022 0.196777 0.154633
0.221619 0.193298 0.152039
0.221619 0.193298 0.152039
0.221619 0.193298 0.152039
0.221619 0.193298 0.152039
0.221619 0.193298 0.152039
0.217072 0.189575 0.148621
0.217072 0.189575 0.148621
0.217072 0.189575 0.148621
0.217072 0.189575 0.148621
0.217072 0.189575 0.148621
0.215729 0.186157 0.146118
0.215729 0.186157 0.146118
0.395874 0.403198 0.322845
0.395874 0.403198 0.322845
0.395874 0.403198 0.322845
0.239166 0.325378 0.251434
0.234955 0.319153 0.246490
0.233093 0.315918 0.243927
0.228760 0.309723 0.239044
0.224823 0.303375 0.234131
0.220795 0.297058 0.229095
0.216492 0.290833 0.224182
0.212646 0.284393 0.219147
0.208405 0.278198 0.214111
0.206329 0.275055 0.211670
0.218750 0.293854 0.226562
0.214813 0.287445 0.221558
0.210571 0.281311 0.216614
0.206329 0.275055 0.211670
0.204834 0.271667 0.209076
0.200470 0.265472 0.204132
0.196289 0.259247 0.199066
0.194580 0.255890 0.196564
0.190552 0.249573 0.191589
0.188751 0.246307 0.189087
0.184601 0.240051 0.184113
0.182831 0.236755 0.181641
0.178894 0.230408 0.176483
0.176971 0.227234 0.174011
0.174957 0.223999 0.171631
0.173187 0.220764 0.168945
0.169250 0.214417 0.163879
0.167450 0.211151 0.161407
0.165039 0.208191 0.158752
0.163330 0.204895 0.156342
0.161682 0.201538 0.153687
0.159729 0.198364 0.151245
0.050323 0.035645 0.033081
0.087280 0.067719 0.056000
0.076996 0.056427 0.047913
0.079376 0.056824 0.046478
0.094635 0.067749 0.057007
0.107910 0.082916 0.063629
0.135345 0.105347 0.082306
0.139740 0.109253 0.084991
0.693604 0.875092 0.697968
0.693604 0.875092 0.697968
0.693604 0.875092 0.697968
0.693604 0.875092 0.697968
0.693604 0.875092 0.697968
0.117706 0.103394 0.084686
0.119141 0.100189 0.079681
0.111359 0.089752 0.071259
0.113983 0.090302 0.071747
0.112427 0.089417 0.074066
0.118164 0.096741 0.079681
0.103333 0.082214 0.070221
0.106720 0.082428 0.070648
0.094849 0.074310 0.064392
0.083923 0.063934 0.057465
0.071259 0.055786 0.049591
0.072266 0.052795 0.044830
0.693604 0.875092 0.697968
0.693604 0.875092 0.697968
0.691437 0.874359 0.697235
0.691437 0.874359 0.697235
0.691437 0.874359 0.697235
0.691437 0.874359 0.697235
0.691437 0.874359 0.697235
0.676666 0.868958 0.691589
0.676666 0.868958 0.691589
0.676666 0.868958 0.691589
0.646729 0.856689 0.678802
0.644836 0.855804 0.677917
0.644836 0.855804 0.677917
0.644836 0.855804 0.677917
0.636566 0.843231 0.668030
0.626221 0.827515 0.655640
0.678680 0.869781 0.692413
0.678680 0.869781 0.692413
0.678680 0.869781 0.692413
0.678680 0.869781 0.692413
0.678680 0.869781 0.692413
0.678680 0.869781 0.692413
0.678680 0.869781 0.692413
0.678680 0.869781 0.692413
0.678680 0.869781 0.692413
0.678680 0.869781 0.692413
0.678680 0.869781 0.692413
0.678680 0.869781 0.692413
0.678680 0.869781 0.692413
0.678680 0.869781 0.692413
0.678680 0.869781 0.692413
0.678680 0.869781 0.692413
0.678680 0.869781 0.692413
0.678680 0.869781 0.692413
0.678680 0.869781 0.692413
0.678680 0.869781 0.692413
0.678680 0.869781 0.692413
0.678680 0.869781 0.692413
0.678680 0.869781 0.692413
0.285309 0.354218 0.277405
0.285309 0.354218 0.277405
0.283325 0.351044 0.274933
0.281372 0.347839 0.272430
0.301453 0.374817 0.294128
0.299591 0.371582 0.291504
0.297699 0.368347 0.289032
0.295685 0.365204 0.286530
0.293671 0.362061 0.284027
0.292053 0.358673 0.281403
0.290131 0.355499 0.278931
0.287964 0.352386 0.276337
0.283844 0.348480 0.273102
0.281769 0.345367 0.270599
0.280060 0.342041 0.268036
0.278015 0.338898 0.265442
0.276154 0.335632 0.263000
0.274567 0.332275 0.260376
0.272400 0.329224 0.257843
0.270630 0.325928 0.255341
0.266388 0.322052 0.252136
0.264404 0.318817 0.249634
0.262604 0.315643 0.247009
0.260681 0.312378 0.244415
0.259094 0.309052 0.241882
0.257019 0.305878 0.239227
0.255005 0.302765 0.236755
0.253540 0.299347 0.234131
0.249146 0.295563 0.231079
0.247375 0.292236 0.228424
0.247375 0.292236 0.228424
0.245270 0.289185 0.225830
0.099457 0.078979 0.057587
0.099457 0.078979 0.057587
0.099457 0.078979 0.057587
0.099457 0.078979 0.057587
0.099457 0.078979 0.057587
0.099457 0.078979 0.057587
0.099457 0.078979 0.057587
0.099457 0.078979 0.057587
0.099457 0.078979 0.057587
0.099457 0.078979 0.057587
0.099457 0.078979 0.057587
0.176086 0.190247 0.146545
0.176086 0.190247 0.146545
0.176086 0.190247 0.146545
0.176086 0.190247 0.146545
0.176086 0.190247 0.146545
0.176086 0.190247 0.146545
0.177094 0.187500 0.144379
0.177094 0.187500 0.144379
0.254852 0.294067 0.230286
0.253235 0.290741 0.227692
0.248718 0.286957 0.224457
0.248718 0.286957 0.224457
0.246826 0.283752 0.222046
0.246826 0.283752 0.222046
0.245331 0.280396 0.219391
0.243561 0.277130 0.216736
0.243561 0.277130 0.216736
0.241547 0.273956 0.214050
0.241547 0.273956 0.214050
0.237305 0.270050 0.210907
0.237305 0.270050 0.210907
0.347687 0.358826 0.285828
0.347687 0.358826 0.285828
0.349335 0.362122 0.288483
0.351135 0.365356 0.291107
0.351135 0.365356 0.291107
0.352692 0.368744 0.293762
0.352692 0.368744 0.293762
0.354370 0.372070 0.296448
0.358734 0.375916 0.299530
0.358734 0.375916 0.299530
0.360504 0.379211 0.302155
0.362183 0.382477 0.304871
0.362183 0.382477 0.304871
0.363647 0.385864 0.307434
0.363647 0.385864 0.307434
0.365509 0.389160 0.310059
0.141693 0.141876 0.107452
0.144531 0.142334 0.108032
0.144531 0.142334 0.108032
0.144531 0.142334 0.108032
0.144531 0.142334 0.108032
0.144531 0.142334 0.108032
0.144531 0.142334 0.108032
0.144531 0.142334 0.108032
0.144531 0.142334 0.108032
0.144531 0.142334 0.108032
0.144531 0.142334 0.108032
0.144531 0.142334 0.108032
0.144531 0.142334 0.108032
0.144531 0.142334 0.108032
0.144531 0.142334 0.108032
0.152008 0.152954 0.116455
0.308960 0.300232 0.238739
0.308960 0.300232 0.238739
0.310760 0.303467 0.241455
0.310760 0.303467 0.241455
0.312225 0.306885 0.244171
0.312225 0.306885 0.244171
0.313690 0.310272 0.246887
0.313690 0.310272 0.246887
0.313690 0.310272 0.246887
0.315430 0.313568 0.249451
0.315430 0.313568 0.249451
0.316772 0.317047 0.252045
0.316772 0.317047 0.252045
0.318359 0.320404 0.254700
0.321503 0.320709 0.255402
0.321503 0.320709 0.255402
0.322876 0.324127 0.257904
0.322876 0.324127 0.257904
0.324677 0.327362 0.260498
0.324677 0.327362 0.260498
0.324677 0.327362 0.260498
0.326141 0.330811 0.263184
0.326141 0.330811 0.263184
0.326141 0.330811 0.263184
0.327759 0.334106 0.265839
0.327759 0.334106 0.265839
0.327759 0.334106 0.265839
0.329468 0.337433 0.268524
0.329468 0.337433 0.268524
0.332184 0.337921 0.269043
0.334076 0.341156 0.271698
0.334076 0.341156 0.271698
0.278961 0.258026 0.204834
0.280243 0.261444 0.207611
0.280243 0.261444 0.207611
0.280243 0.261444 0.207611
0.281891 0.264801 0.210175
0.281891 0.264801 0.210175
0.281891 0.264801 0.210175
0.283295 0.268250 0.212830
0.283295 0.268250 0.212830
0.283295 0.268250 0.212830
0.287933 0.271973 0.216003
0.287933 0.271973 0.216003
0.287933 0.271973 0.216003
0.289154 0.275513 0.218719
0.289154 0.275513 0.218719
0.289154 0.275513 0.218719
0.289154 0.275513 0.218719
0.290863 0.278778 0.221375
0.290863 0.278778 0.221375
0.290863 0.278778 0.221375
0.292358 0.282196 0.224091
0.292358 0.282196 0.224091
0.292358 0.282196 0.224091
0.292358 0.282196 0.224091
0.293884 0.285553 0.226685
0.293884 0.285553 0.226685
0.296814 0.285950 0.227203
0.298553 0.289215 0.229889
0.298553 0.289215 0.229889
0.298553 0.289215 0.229889
0.298553 0.289215 0.229889
0.299957 0.292694 0.232422
0.257935 0.229767 0.181915
0.257935 0.229767 0.181915
0.259308 0.233215 0.184570
0.259308 0.233215 0.184570
0.259308 0.233215 0.184570
0.259308 0.233215 0.184570
0.260925 0.236542 0.187347
0.260925 0.236542 0.187347
0.260925 0.236542 0.187347
0.260925 0.236542 0.187347
0.262390 0.239929 0.190002
0.262390 0.239929 0.190002
0.262390 0.239929 0.190002
0.262390 0.239929 0.190002
0.266693 0.243805 0.193298
0.266693 0.243805 0.193298
0.266693 0.243805 0.193298
0.266693 0.243805 0.193298
0.266693 0.243805 0.193298
0.268402 0.247070 0.195923
0.268402 0.247070 0.195923
0.268402 0.247070 0.195923
0.268402 0.247070 0.195923
0.269714 0.250610 0.198608
0.269714 0.250610 0.198608
0.269714 0.250610 0.198608
0.269714 0.250610 0.198608
0.271240 0.253937 0.201111
0.271240 0.253937 0.201111
0.271240 0.253937 0.201111
0.274323 0.254303 0.201752
0.274323 0.254303 0.201752
0.239716 0.208405 0.164459
0.239716 0.208405 0.164459
0.239716 0.208405 0.164459
0.241180 0.211792 0.167084
0.241180 0.211792 0.167084
0.241180 0.211792 0.167084
0.241180 0.211792 0.167084
0.241180 0.211792 0.167084
0.242676 0.215179 0.169769
0.242676 0.215179 0.169769
0.242676 0.215179 0.169769
0.246033 0.215393 0.170319
0.246033 0.215393 0.170319
0.247498 0.218781 0.172974
0.247498 0.218781 0.172974
0.247498 0.218781 0.172974
0.247498 0.218781 0.172974
0.247498 0.218781 0.172974
0.247498 0.218781 0.172974
0.248810 0.222260 0.175568
0.248810 0.222260 0.175568
0.248810 0.222260 0.175568
0.248810 0.222260 0.175568
0.248810 0.222260 0.175568
0.250122 0.225769 0.178314
0.250122 0.225769 0.178314
0.250122 0.225769 0.178314
0.250122 0.225769 0.178314
0.253113 0.226135 0.178711
0.253113 0.226135 0.178711
0.254730 0.229492 0.181519
0.254730 0.229492 0.181519
0.226501 0.190521 0.150085
0.228088 0.193878 0.152832
0.228088 0.193878 0.152832
0.228088 0.193878 0.152832
0.228088 0.193878 0.152832
0.228088 0.193878 0.152832
0.228088 0.193878 0.152832
0.228088 0.193878 0.152832
0.229462 0.197327 0.155426
0.229462 0.197327 0.155426
0.229462 0.197327 0.155426
0.229462 0.197327 0.155426
0.229462 0.197327 0.155426
0.229462 0.197327 0.155426
0.230835 0.200745 0.158234
0.230835 0.200745 0.158234
0.230835 0.200745 0.158234
0.234039 0.201080 0.158600
0.234039 0.201080 0.158600
0.234039 0.201080 0.158600
0.234039 0.201080 0.158600
0.235382 0.204468 0.161377
0.235382 0.204468 0.161377
0.235382 0.204468 0.161377
0.235382 0.204468 0.161377
0.235382 0.204468 0.161377
0.235382 0.204468 0.161377
0.235382 0.204468 0.161377
0.236877 0.207947 0.164093
0.236877 0.207947 0.164093
0.236877 0.207947 0.164093
0.236877 0.207947 0.164093
0.216553 0.179291 0.141113
0.216553 0.179291 0.141113
0.216553 0.179291 0.141113
0.216553 0.179291 0.141113
0.216553 0.179291 0.141113
0.216553 0.179291 0.141113
0.216553 0.179291 0.141113
0.217773 0.182861 0.143799
0.217773 0.182861 0.143799
0.217773 0.182861 0.143799
0.217773 0.182861 0.143799
0.217773 0.182861 0.143799
0.217773 0.182861 0.143799
0.217773 0.182861 0.143799
0.217773 0.182861 0.143799
0.219025 0.186340 0.146545
0.219025 0.186340 0.146545
0.219025 0.186340 0.146545
0.219025 0.186340 0.146545
0.222015 0.186798 0.146881
0.222015 0.186798 0.146881
0.222015 0.186798 0.146881
0.222015 0.186798 0.146881
0.223541 0.190094 0.149780
0.223541 0.190094 0.149780
0.223541 0.190094 0.149780
0.223541 0.190094 0.149780
0.223541 0.190094 0.149780
0.223541 0.190094 0.149780
0.223541 0.190094 0.149780
0.223541 0.190094 0.149780
0.225189 0.193420 0.152496
0.205688 0.168549 0.132111
0.205688 0.168549 0.132111
0.205688 0.168549 0.132111
0.205688 0.168549 0.132111
0.205688 0.168549 0.132111
0.205688 0.168549 0.132111
0.205688 0.168549 0.132111
0.206848 0.172150 0.134705
0.206848 0.172150 0.134705
0.206848 0.172150 0.134705
0.206848 0.172150 0.134705
0.206848 0.172150 0.134705
0.206848 0.172150 0.134705
0.206848 0.172150 0.134705
0.206848 0.172150 0.134705
0.206848 0.172150 0.134705
0.210266 0.172333 0.135132
